daelmo/Root-Cause-Detection-in-a-Robotic-Gripping-Process/datasets/dataset_rootcause_PlateNotInPosition.csv
SensorBelt_detectionDistance (Meters),robot1_jointAngle1 (Degrees),robot1_jointAngle2 (Degrees),robot1_jointAngle3 (Degrees),robot1_jointAngle4 (Degrees),robot1_jointAngle5 (Degrees),robot1_jointAngle6 (Degrees),robot1_jointAngle7 (Degrees),robot2_jointAngle1 (Degrees),robot2_jointAngle2 (Degrees),robot2_jointAngle3 (Degrees),robot2_jointAngle4 (Degrees),robot2_jointAngle5 (Degrees),robot2_jointAngle6 (Degrees),robot2_jointAngle7 (Degrees),robot1_joint1_velocity (Degrees/Seconds),robot1_joint2_velocity (Degrees/Seconds),robot1_joint3_velocity (Degrees/Seconds),robot1_joint4_velocity (Degrees/Seconds),robot1_joint5_velocity (Degrees/Seconds),robot1_joint6_velocity (Degrees/Seconds),robot1_joint7_velocity (Degrees/Seconds),robot2_joint1_velocity (Degrees/Seconds),robot2_joint2_velocity (Degrees/Seconds),robot2_joint3_velocity (Degrees/Seconds),robot2_joint4_velocity (Degrees/Seconds),robot2_joint5_velocity (Degrees/Seconds),robot2_joint6_velocity (Degrees/Seconds),robot2_joint7_velocity (Degrees/Seconds),beltSpeed (Centimeters/Second),torque (Newtonmeter),sensorShelf_detectionDistance (Meters),powerConsumptionGripper (Watt)
100.0,-6.7652,-38.208,76.16,-66.434,10.556,29.615,29.615,-15.513,-34.619,73.237,-64.519,8.8934,29.404,29.404,4.6967,35.845,-16.806,-16.595,14.477,2.7465,2.7465,8.5372,8.4155,-7.8621,21.705,-18.773,-1.4685,-1.4685,0.8,1,100,0
100.0,-6.76,-37.471,76.2,-66.93,11.953,29.484,29.484,-14.238,-35.477,73.119,-63.778,6.508,29.936,29.936,0.10342,14.742,0.81225,-9.9222,27.934,-2.6165,-2.6165,25.511,-17.16,-2.3582,14.812,-47.708,10.63,10.63,0.8,1,100,0
100.0,-6.7632,-36.945,76.341,-67.294,13.194,29.334,29.334,-13.038,-36.256,72.971,-63.204,4.2682,30.446,30.446,-0.064503,10.516,2.8206,-7.2762,24.82,-3.003,-3.003,23.986,-15.579,-2.9633,11.484,-44.797,10.208,10.208,0.8,1,100,0
100.0,-6.7358,-36.599,76.568,-67.553,14.312,29.181,29.182,-11.889,-36.97,72.802,-62.727,2.1565,30.94,30.94,0.54875,6.9098,4.535,-5.175,22.374,-3.0467,-3.0467,22.988,-14.284,-3.3697,9.5405,-42.233,9.8906,9.8906,0.8,1,100,0
100.0,-6.6764,-36.411,76.868,-67.733,15.327,29.033,29.033,-10.778,-37.628,72.616,-62.304,0.15104,31.412,31.412,1.1886,3.7602,6.0003,-3.6078,20.3,-2.9773,-2.9773,22.224,-13.146,-3.7279,8.4697,-40.109,9.4255,9.4255,0.8,1,100,0
100.0,-6.5883,-36.359,77.23,-67.857,16.251,28.892,28.892,-9.6986,-38.232,72.411,-61.9,-1.7638,31.851,31.851,1.7619,1.04,7.2351,-2.4738,18.482,-2.8219,-2.8219,21.583,-12.089,-4.0906,8.08,-38.297,8.7821,8.7821,0.8,1,100,0
100.0,-6.4748,-36.422,77.643,-67.941,17.094,28.762,28.762,-8.6484,-38.786,72.187,-61.487,-3.5984,32.25,32.25,2.2696,-1.2604,8.2551,-1.6819,16.849,-2.585,-2.585,21.003,-11.086,-4.4788,8.2435,-36.691,7.9748,7.9748,0.8,1,100,0
100.0,-6.3384,-36.58,78.096,-67.999,17.861,28.649,28.649,-7.6264,-39.292,71.942,-61.045,-5.3585,32.601,32.601,2.7276,-3.1465,9.0709,-1.1588,15.349,-2.2681,-2.2681,20.44,-10.115,-4.9022,8.8485,-35.203,7.0289,7.0289,0.8,1,100,0
100.0,-6.181,-36.811,78.581,-68.041,18.559,28.555,28.555,-6.6331,-39.751,71.674,-60.556,-7.0474,32.9,32.9,3.1489,-4.632,9.6944,-0.84544,13.947,-1.8782,-1.8782,19.867,-9.1737,-5.3621,9.7903,-33.777,5.9774,5.9774,0.8,1,100,0
100.0,-6.0038,-37.098,79.088,-68.076,19.189,28.484,28.484,-5.6696,-40.164,71.381,-60.007,-8.6664,33.143,33.143,3.5437,-5.737,10.141,-0.69313,12.615,-1.4241,-1.4241,19.268,-8.2645,-5.8555,10.968,-32.381,4.8574,4.8574,0.8,1,100,0
100.0,-5.8079,-37.423,79.609,-68.109,19.756,28.438,28.438,-4.7377,-40.534,71.063,-59.393,-10.216,33.328,33.328,3.9174,-6.4948,10.427,-0.6628,11.341,-0.9188,-0.9188,18.639,-7.3899,-6.3752,12.288,-31.0,3.7069,3.7069,0.8,1,100,0
100.0,-5.5914,-37.767,80.135,-68.142,20.257,28.421,28.421,-3.8401,-40.857,70.717,-58.712,-11.689,33.458,33.458,4.3292,-6.8747,10.506,-0.67018,10.014,-0.32973,-0.32973,17.952,-6.4686,-6.9082,13.615,-29.456,2.5935,2.5935,0.8,1,100,0
100.0,-5.3558,-38.118,80.66,-68.18,20.696,28.434,28.434,-2.9765,-41.139,70.345,-57.966,-13.091,33.534,33.534,4.7135,-7.0363,10.507,-0.76225,8.7734,0.25142,0.25142,17.273,-5.6402,-7.4465,14.928,-28.04,1.5213,1.5213,0.8,1,100,0
100.0,-5.1031,-38.47,81.183,-68.226,21.077,28.475,28.475,-2.1465,-41.384,69.946,-57.156,-14.429,33.559,33.559,5.0537,-7.0255,10.456,-0.92112,7.6294,0.81276,0.81276,16.599,-4.9011,-7.9834,16.185,-26.75,0.50578,0.50578,0.8,1,100,0
100.0,-4.8347,-38.812,81.7,-68.282,21.404,28.543,28.543,-1.3505,-41.595,69.52,-56.29,-15.704,33.538,33.538,5.3683,-6.854,10.34,-1.1036,6.5426,1.3682,1.3682,15.921,-4.2103,-8.5075,17.325,-25.503,-0.42108,-0.42108,0.8,1,100,0
100.0,-4.5517,-39.141,82.209,-68.347,21.68,28.638,28.638,-0.58785,-41.773,69.07,-55.374,-16.92,33.476,33.476,5.6586,-6.568,10.182,-1.2977,5.5201,1.9062,1.9062,15.252,-3.5683,-9.012,18.318,-24.313,-1.2436,-1.2436,0.8,1,100,0
100.0,-4.2223,-39.417,82.666,-68.387,21.847,28.784,28.784,0.12814,-41.874,68.607,-54.463,-17.971,33.405,33.405,6.5879,-5.5312,9.1474,-0.80569,3.3252,2.9067,2.9067,14.32,-2.014,-9.2555,18.226,-21.039,-1.4085,-1.4085,0.8,1,100,0
100.0,-3.8368,-39.649,83.074,-68.399,21.899,28.972,28.972,0.81024,-41.897,68.134,-53.578,-18.877,33.342,33.342,7.7104,-4.6377,8.1522,-0.25094,1.0508,3.7626,3.7626,13.642,-0.46104,-9.4672,17.697,-18.12,-1.2779,-1.2779,0.8,1,100,0
100.0,-3.4236,-39.876,83.476,-68.415,21.896,29.171,29.171,1.4807,-41.887,67.637,-52.693,-19.759,33.267,33.267,8.2635,-4.542,8.0409,-0.31173,-0.065706,3.9901,3.9901,13.41,0.1909,-9.9345,17.707,-17.631,-1.4837,-1.4837,0.8,1,100,0
100.0,-2.9913,-40.101,83.874,-68.432,21.844,29.379,29.379,2.1386,-41.847,67.119,-51.813,-20.618,33.185,33.185,8.6473,-4.4846,7.96,-0.34738,-1.0466,4.1537,4.1537,13.157,0.79538,-10.362,17.601,-17.176,-1.6421,-1.6421,0.8,1,100,0
100.0,-2.5437,-40.323,84.269,-68.449,21.749,29.592,29.592,2.7839,-41.78,66.581,-50.942,-21.455,33.099,33.099,8.9524,-4.4537,7.9088,-0.33673,-1.9003,4.2704,4.2704,12.906,1.3507,-10.751,17.404,-16.745,-1.731,-1.731,0.8,1,100,0
100.0,-2.0595,-40.523,84.628,-68.439,21.567,29.825,29.825,3.4055,-41.651,66.043,-50.129,-22.186,33.034,33.034,9.6823,-3.9917,7.1748,0.21078,-3.6353,4.6503,4.6503,12.432,2.5763,-10.772,16.265,-14.622,-1.3018,-1.3017,0.8,1,100,0
100.0,-1.5112,-40.688,84.922,-68.375,21.253,30.083,30.083,4.0025,-41.428,65.518,-49.424,-22.747,33.019,33.019,10.966,-3.2969,5.8738,1.271,-6.2693,5.1702,5.1702,11.941,4.4534,-10.487,14.113,-11.223,-0.30053,-0.30053,0.8,1,100,0
100.0,-0.93296,-40.871,85.221,-68.296,20.893,30.33,30.33,4.6078,-41.174,64.975,-48.763,-23.315,33.021,33.021,11.566,-3.6611,5.9826,1.5737,-7.2002,4.9233,4.9233,12.105,5.0994,-10.874,13.219,-11.35,0.05109,0.05109,0.8,1,100,0
100.0,-0.33539,-41.074,85.527,-68.2,20.494,30.56,30.56,5.2186,-40.889,64.413,-48.146,-23.888,33.039,33.039,11.951,-4.0725,6.1268,1.9299,-7.9927,4.609,4.609,12.217,5.6948,-11.227,12.329,-11.47,0.36145,0.36145,0.8,1,100,0
100.0,0.2771,-41.299,85.842,-68.082,20.06,30.773,30.773,5.8339,-40.577,63.836,-47.573,-24.466,33.073,33.073,12.25,-4.5,6.303,2.3637,-8.6644,4.2495,4.2495,12.305,6.2343,-11.543,11.468,-11.561,0.66506,0.66499,0.8,1,100,0
100.0,0.91104,-41.537,86.152,-67.93,19.577,30.97,30.97,6.4473,-40.226,63.254,-47.061,-25.012,33.13,33.13,12.679,-4.7574,6.1845,3.042,-9.6653,3.9558,3.9558,12.268,7.0164,-11.647,10.235,-10.912,1.1431,1.1431,0.8,1,100,0
100.0,1.5998,-41.761,86.402,-67.712,18.973,31.168,31.168,7.0431,-39.787,62.698,-46.682,-25.407,33.243,33.243,13.776,-4.4729,5.0112,4.3529,-12.09,3.9547,3.9547,11.916,8.7797,-11.124,7.5762,-7.8947,2.2709,2.2709,0.8,1,100,0
100.0,2.3162,-42.016,86.668,-67.455,18.332,31.335,31.335,7.6542,-39.32,62.126,-46.359,-25.818,33.38,33.38,14.327,-5.1117,5.3209,5.1378,-12.817,3.3288,3.3288,12.222,9.3491,-11.44,6.4625,-8.2341,2.7367,2.7367,0.8,1,100,0
100.0,3.0507,-42.305,86.951,-67.155,17.659,31.467,31.467,8.2775,-38.826,61.539,-46.088,-26.246,33.535,33.535,14.69,-5.7673,5.6572,5.9957,-13.45,2.6435,2.6435,12.467,9.8743,-11.735,5.4246,-8.5524,3.1076,3.1076,0.8,1,100,0
100.0,3.8,-42.625,87.252,-66.808,16.959,31.563,31.563,8.9112,-38.309,60.939,-45.864,-26.687,33.707,33.707,14.987,-6.409,6.0169,6.947,-14.01,1.9196,1.9196,12.674,10.346,-12.0,4.4753,-8.8239,3.4218,3.4218,0.8,1,100,0
100.0,4.5631,-42.976,87.571,-66.408,16.231,31.621,31.621,9.5534,-37.769,60.328,-45.685,-27.137,33.891,33.891,15.262,-7.0183,6.3749,8.001,-14.549,1.1674,1.1674,12.844,10.788,-12.223,3.5828,-9.0042,3.6932,3.6932,0.8,1,100,0
100.0,5.3647,-43.332,87.859,-65.935,15.416,31.655,31.655,10.186,-37.167,59.736,-45.613,-27.494,34.113,34.113,16.031,-7.1178,5.7749,9.4531,-16.318,0.67189,0.67189,12.658,12.039,-11.843,1.4387,-7.1408,4.4322,4.4322,0.8,1,100,0
100.0,6.1896,-43.721,88.171,-65.399,14.569,31.645,31.645,10.832,-36.545,59.132,-45.587,-27.865,34.348,34.348,16.499,-7.78,6.2353,10.725,-16.929,-0.20238,-0.20238,12.91,12.456,-12.068,0.52135,-7.4115,4.7062,4.7062,0.8,1,100,0
100.0,7.0319,-44.143,88.507,-64.795,13.694,31.589,31.589,11.487,-35.903,58.518,-45.603,-28.248,34.592,34.592,16.846,-8.4312,6.7161,12.072,-17.509,-1.1191,-1.1191,13.109,12.839,-12.275,-0.31241,-7.6509,4.8779,4.8779,0.8,1,100,0
100.0,7.89,-44.595,88.868,-64.12,12.79,31.486,31.486,12.151,-35.244,57.896,-45.656,-28.639,34.841,34.841,17.161,-9.0471,7.216,13.502,-18.076,-2.0599,-2.0599,13.271,13.177,-12.454,-1.0661,-7.8329,4.9792,4.9792,0.8,1,100,0
100.0,8.7633,-45.076,89.254,-63.37,11.857,31.335,31.335,12.821,-34.57,57.266,-45.744,-29.037,35.092,35.092,17.467,-9.6199,7.7337,15.006,-18.647,-3.0189,-3.0189,13.402,13.472,-12.601,-1.7542,-7.954,5.0183,5.0183,0.8,1,100,0
100.0,9.6697,-45.565,89.63,-62.538,10.849,31.147,31.147,13.483,-33.851,56.652,-45.92,-29.366,35.362,35.362,18.128,-9.7847,7.5165,16.649,-20.168,-3.7479,-3.7479,13.243,14.375,-12.271,-3.5246,-6.5825,5.4094,5.4094,0.8,1,100,0
100.0,10.602,-46.078,90.03,-61.625,9.7996,30.913,30.913,14.151,-33.115,56.037,-46.145,-29.687,35.638,35.638,18.653,-10.261,7.9864,18.246,-20.989,-4.6817,-4.6817,13.351,14.736,-12.297,-4.4952,-6.4239,5.5221,5.5221,0.8,1,100,0
100.0,11.554,-46.617,90.46,-60.634,8.7174,30.63,30.63,14.824,-32.367,55.418,-46.408,-30.011,35.914,35.914,19.039,-10.777,8.6145,19.831,-21.643,-5.6566,-5.6565,13.472,14.958,-12.38,-5.2698,-6.4832,5.5098,5.5098,0.8,1,100,0
100.0,12.522,-47.179,90.923,-59.564,7.6039,30.3,30.3,15.502,-31.61,54.797,-46.71,-30.336,36.187,36.187,19.364,-11.241,9.2628,21.387,-22.271,-6.603,-6.603,13.558,15.13,-12.427,-6.0368,-6.4926,5.4583,5.4582,0.8,1,100,0
100.0,13.505,-47.761,91.42,-58.421,6.4609,29.925,29.925,16.183,-30.848,54.175,-47.051,-30.659,36.457,36.457,19.644,-11.645,9.929,22.872,-22.859,-7.4984,-7.4984,13.613,15.254,-12.436,-6.8188,-6.4501,5.3952,5.3952,0.8,1,100,0
100.0,14.507,-48.35,91.928,-57.213,5.266,29.518,29.518,16.857,-30.061,53.568,-47.47,-30.938,36.737,36.737,20.055,-11.78,10.156,24.157,-23.898,-8.1378,-8.1378,13.483,15.725,-12.149,-8.3932,-5.5815,5.61,5.61,0.8,1,100,0
100.0,15.526,-48.951,92.461,-55.951,4.0387,29.081,29.081,17.53,-29.264,52.969,-47.956,-31.196,37.027,37.027,20.376,-12.01,10.666,25.23,-24.547,-8.7429,-8.7429,13.46,15.948,-11.97,-9.7198,-5.1638,5.799,5.799,0.8,1,100,0
100.0,16.551,-49.567,93.031,-54.648,2.7991,28.616,28.616,18.205,-28.466,52.375,-48.496,-31.452,37.324,37.324,20.492,-12.319,11.393,26.069,-24.792,-9.2965,-9.2965,13.501,15.961,-11.889,-10.783,-5.1284,5.9333,5.9333,0.8,1,100,0
100.0,17.573,-50.197,93.636,-53.318,1.5582,28.131,28.132,18.881,-27.669,51.785,-49.089,-31.708,37.63,37.63,20.438,-12.604,12.11,26.601,-24.817,-9.6981,-9.698,13.519,15.939,-11.796,-11.864,-5.1251,6.1226,6.1226,0.8,1,100,0
100.0,18.584,-50.841,94.276,-51.979,0.32885,27.635,27.635,19.557,-26.874,51.2,-49.736,-31.967,37.949,37.949,20.229,-12.871,12.802,26.788,-24.587,-9.9243,-9.9243,13.523,15.89,-11.693,-12.95,-5.1637,6.3907,6.3907,0.8,1,100,0
100.0,19.581,-51.492,94.936,-50.655,-0.88675,27.144,27.144,20.228,-26.072,50.627,-50.459,-32.211,38.295,38.295,19.94,-13.032,13.201,26.479,-24.312,-9.8336,-9.8336,13.425,16.054,-11.468,-14.457,-4.8833,6.9089,6.9089,0.8,1,100,0
100.0,20.557,-52.154,95.615,-49.368,-2.0711,26.667,26.667,20.896,-25.261,50.063,-51.255,-32.448,38.672,38.672,19.523,-13.239,13.575,25.739,-23.687,-9.5348,-9.5348,13.349,16.205,-11.271,-15.916,-4.7482,7.546,7.546,0.8,1,100,0
100.0,21.502,-52.834,96.321,-48.13,-3.1978,26.208,26.208,21.564,-24.453,49.502,-52.098,-32.702,39.077,39.078,18.893,-13.594,14.129,24.755,-22.534,-9.1776,-9.1776,13.365,16.161,-11.219,-16.858,-5.0744,8.1076,8.1076,0.8,1,100,0
100.0,22.407,-53.534,97.052,-46.953,-4.2544,25.773,25.773,22.233,-23.646,48.941,-52.977,-32.977,39.51,39.51,18.097,-13.995,14.619,23.531,-21.132,-8.7013,-8.7013,13.371,16.142,-11.222,-17.589,-5.4981,8.6572,8.6572,0.8,1,100,0
100.0,23.267,-54.255,97.805,-45.846,-5.2321,25.366,25.366,22.901,-22.839,48.378,-53.882,-33.276,39.969,39.969,17.206,-14.423,15.042,22.149,-19.554,-8.1372,-8.1372,13.365,16.146,-11.268,-18.087,-5.986,9.1736,9.1736,0.8,1,100,0
100.0,24.082,-54.996,98.567,-44.817,-6.1313,24.994,24.994,23.565,-22.023,47.813,-54.811,-33.593,40.455,40.455,16.298,-14.823,15.257,20.586,-17.984,-7.439,-7.439,13.293,16.312,-11.303,-18.594,-6.3377,9.726,9.726,0.8,1,100,0
100.0,24.853,-55.756,99.332,-43.872,-6.9539,24.662,24.663,24.224,-21.193,47.246,-55.766,-33.922,40.971,40.971,15.425,-15.203,15.298,18.885,-16.451,-6.6326,-6.6326,13.172,16.617,-11.332,-19.093,-6.5818,10.305,10.305,0.8,1,100,0
100.0,25.58,-56.539,100.11,-43.003,-7.6919,24.364,24.364,24.88,-20.358,46.673,-56.713,-34.278,41.502,41.502,14.542,-15.663,15.545,17.394,-14.761,-5.968,-5.968,13.126,16.683,-11.469,-18.936,-7.1133,10.632,10.632,0.8,1,100,0
100.0,26.264,-57.344,100.9,-42.2,-8.351,24.096,24.096,25.532,-19.521,46.09,-57.639,-34.658,42.042,42.042,13.67,-16.099,15.764,16.06,-13.181,-5.3616,-5.3616,13.043,16.753,-11.647,-18.524,-7.5996,10.799,10.799,0.8,1,100,0
100.0,26.907,-58.168,101.7,-41.455,-8.9391,23.855,23.855,26.178,-18.68,45.498,-58.535,-35.058,42.584,42.584,12.859,-16.482,15.948,14.883,-11.763,-4.8135,-4.8135,12.921,16.814,-11.842,-17.921,-8.004,10.831,10.831,0.8,1,100,0
100.0,27.514,-59.008,102.5,-40.765,-9.467,23.641,23.641,26.816,-17.834,44.897,-59.399,-35.471,43.123,43.123,12.137,-16.79,16.047,13.812,-10.558,-4.2882,-4.2882,12.744,16.925,-12.031,-17.277,-8.2645,10.785,10.785,0.8,1,100,0
100.0,28.091,-59.858,103.29,-40.13,-9.9483,23.456,23.456,27.44,-16.972,44.288,-60.243,-35.885,43.663,43.663,11.54,-17.009,15.935,12.694,-9.6268,-3.693,-3.693,12.481,17.231,-12.18,-16.88,-8.284,10.792,10.792,0.8,1,100,0
100.0,28.641,-60.719,104.1,-39.537,-10.384,23.293,23.293,28.054,-16.11,43.67,-61.044,-36.307,44.192,44.192,11.011,-17.224,16.039,11.857,-8.7107,-3.2631,-3.2631,12.279,17.253,-12.364,-16.019,-8.4313,10.581,10.581,0.8,1,100,0
100.0,29.167,-61.589,104.9,-38.979,-10.782,23.148,23.148,28.656,-15.247,43.041,-61.797,-36.732,44.705,44.705,10.524,-17.389,16.14,11.173,-7.9573,-2.8998,-2.8998,12.047,17.259,-12.572,-15.068,-8.5066,10.267,10.267,0.8,1,100,0
100.0,29.672,-62.464,105.71,-38.449,-11.15,23.019,23.019,29.246,-14.384,42.402,-62.502,-37.158,45.199,45.199,10.098,-17.498,16.229,10.593,-7.3577,-2.5838,-2.5838,11.793,17.255,-12.787,-14.09,-8.5138,9.8887,9.8887,0.8,1,100,0
100.0,30.159,-63.342,106.53,-37.944,-11.494,22.904,22.904,29.822,-13.522,41.751,-63.157,-37.581,45.673,45.673,9.7336,-17.56,16.303,10.091,-6.8902,-2.3049,-2.3049,11.527,17.245,-13.004,-13.113,-8.4647,9.4714,9.4714,0.8,1,100,0
100.0,30.631,-64.221,107.34,-37.466,-11.822,22.803,22.803,30.384,-12.655,41.091,-63.772,-37.998,46.128,46.128,9.4361,-17.582,16.286,9.5663,-6.5659,-2.0073,-2.0073,11.23,17.331,-13.214,-12.301,-8.3268,9.094,9.094,0.8,1,100,0
100.0,31.09,-65.1,108.16,-37.009,-12.136,22.715,22.715,30.931,-11.79,40.419,-64.341,-38.408,46.561,46.561,9.182,-17.585,16.341,9.1417,-6.2802,-1.7716,-1.7716,10.959,17.311,-13.426,-11.38,-8.2102,8.6588,8.6588,0.8,1,100,0
100.0,31.538,-65.979,108.98,-36.571,-12.44,22.636,22.636,31.466,-10.925,39.737,-64.865,-38.812,46.971,46.971,8.954,-17.568,16.396,8.7661,-6.0639,-1.5654,-1.5654,10.686,17.288,-13.649,-10.475,-8.0724,8.2064,8.2064,0.8,1,100,0
100.0,31.975,-66.855,109.8,-36.15,-12.735,22.567,22.567,31.987,-10.062,39.043,-65.345,-39.208,47.359,47.359,8.7537,-17.535,16.449,8.4228,-5.9043,-1.3818,-1.3818,10.415,17.267,-13.876,-9.6024,-7.9225,7.7516,7.7516,0.8,1,100,0
100.0,32.404,-67.73,110.63,-35.744,-13.024,22.506,22.507,32.494,-9.1995,38.338,-65.784,-39.596,47.724,47.724,8.5777,-17.49,16.5,8.1037,-5.7879,-1.2177,-1.2177,10.15,17.247,-14.107,-8.7653,-7.7656,7.3016,7.3016,0.8,1,100,0
100.0,32.825,-68.602,111.46,-35.354,-13.309,22.453,22.453,32.989,-8.338,37.621,-66.182,-39.976,48.067,48.067,8.4216,-17.439,16.551,7.805,-5.7038,-1.0705,-1.0705,9.8919,17.229,-14.34,-7.9658,-7.606,6.8602,6.8602,0.8,1,100,0
100.0,33.239,-69.471,112.29,-34.978,-13.592,22.406,22.406,33.471,-7.4773,36.892,-66.542,-40.349,48.388,48.388,8.2813,-17.383,16.602,7.5239,-5.644,-0.93833,-0.93833,9.6409,17.214,-14.575,-7.2043,-7.4468,6.4314,6.4314,0.8,1,100,0
100.0,33.647,-70.337,113.12,-34.615,-13.872,22.365,22.365,33.941,-6.6173,36.152,-66.866,-40.713,48.689,48.689,8.1527,-17.326,16.655,7.2576,-5.6014,-0.82061,-0.82061,9.3979,17.2,-14.81,-6.4809,-7.2906,6.0157,6.0157,0.8,1,100,0
100.0,34.049,-71.201,113.95,-34.265,-14.15,22.329,22.329,34.399,-5.7579,35.399,-67.156,-41.07,48.97,48.97,8.0341,-17.269,16.711,7.0067,-5.571,-0.71628,-0.71628,9.163,17.188,-15.046,-5.7932,-7.1382,5.6144,5.6144,0.8,1,100,0
100.0,34.445,-72.061,114.79,-33.926,-14.428,22.298,22.298,34.846,-4.899,34.635,-67.413,-41.42,49.231,49.231,7.9231,-17.213,16.77,6.7712,-5.5489,-0.62438,-0.62438,8.9364,17.178,-15.282,-5.1404,-6.9906,5.2277,5.2277,0.8,1,100,0
100.0,34.836,-72.919,115.63,-33.599,-14.704,22.271,22.271,35.281,-4.0406,33.859,-67.639,-41.762,49.474,49.474,7.8174,-17.158,16.833,6.5504,-5.5328,-0.54495,-0.54495,8.7181,17.168,-15.518,-4.5206,-6.8488,4.8559,4.8559,0.8,1,100,0
100.0,35.221,-73.775,116.48,-33.281,-14.98,22.247,22.247,35.707,-3.1825,33.072,-67.836,-42.098,49.699,49.699,7.7165,-17.106,16.899,6.3441,-5.5203,-0.47671,-0.47668,8.5067,17.161,-15.752,-3.9338,-6.7126,4.4995,4.4995,0.8,1,100,0
100.0,35.602,-74.627,117.33,-32.974,-15.256,22.226,22.226,36.122,-2.3248,32.272,-68.004,-42.427,49.907,49.907,7.6192,-17.055,16.968,6.1528,-5.51,-0.41917,-0.41917,8.3035,17.155,-15.986,-3.3785,-6.5827,4.1576,4.1576,0.8,1,100,0
100.0,35.979,-75.478,118.18,-32.675,-15.531,22.207,22.207,36.527,-1.4674,31.461,-68.147,-42.75,50.098,50.098,7.5237,-17.007,17.043,5.9759,-5.5006,-0.37293,-0.37293,8.1076,17.148,-16.218,-2.8512,-6.4588,3.8298,3.8298,0.8,1,100,0
100.0,36.35,-76.326,119.04,-32.384,-15.805,22.19,22.191,36.923,-0.61022,30.639,-68.265,-43.067,50.274,50.274,7.4311,-16.961,17.121,5.8137,-5.4914,-0.33608,-0.33608,7.9181,17.144,-16.45,-2.3541,-6.3412,3.5163,3.5163,0.8,1,100,0
100.0,36.717,-77.171,119.9,-32.101,-16.08,22.175,22.175,37.31,0.24674,29.805,-68.359,-43.378,50.435,50.435,7.3393,-16.917,17.203,5.6666,-5.4822,-0.30958,-0.30958,7.735,17.139,-16.68,-1.8824,-6.2296,3.2162,3.2163,0.8,1,100,0
100.0,37.08,-78.015,120.76,-31.824,-16.353,22.16,22.16,37.688,1.1035,28.959,-68.431,-43.685,50.581,50.581,7.2496,-16.874,17.29,5.5335,-5.4722,-0.29172,-0.29172,7.559,17.136,-16.909,-1.4378,-6.1239,2.9293,2.9293,0.8,1,100,0
100.0,37.438,-78.857,121.63,-31.554,-16.626,22.146,22.146,38.057,1.9602,28.103,-68.482,-43.986,50.714,50.714,7.1602,-16.835,17.381,5.4142,-5.4615,-0.28308,-0.28308,7.3889,17.134,-17.136,-1.0176,-6.0247,2.6548,2.6548,0.8,1,100,0
100.0,37.791,-79.697,122.5,-31.288,-16.899,22.132,22.132,38.419,2.8168,27.235,-68.513,-44.282,50.834,50.834,7.0721,-16.797,17.476,5.3091,-5.4494,-0.28256,-0.28253,7.2244,17.132,-17.362,-0.62086,-5.9314,2.3922,2.3922,0.8,1,100,0
100.0,38.14,-80.535,123.38,-31.027,-17.171,22.118,22.118,38.772,3.6734,26.355,-68.525,-44.575,50.941,50.941,6.9844,-16.761,17.576,5.217,-5.4366,-0.2896,-0.28957,7.0654,17.132,-17.588,-0.24712,-5.844,2.1415,2.1415,0.8,1,100,0
100.0,38.468,-81.321,124.29,-30.707,-17.416,22.064,22.064,39.109,4.3926,25.496,-68.41,-44.854,50.981,50.981,6.5442,-15.731,18.213,6.4154,-4.9064,-1.0689,-1.0689,6.7442,14.384,-17.183,2.3102,-5.5957,0.79551,0.79551,0.8,1,100,0
100.0,38.748,-81.982,125.25,-30.251,-17.619,21.934,21.934,39.413,4.8478,24.68,-68.067,-45.101,50.898,50.898,5.6163,-13.206,19.057,9.1112,-4.0681,-2.6066,-2.6066,6.0772,9.104,-16.323,6.8501,-4.9421,-1.6509,-1.6509,0.8,1,100,0
100.0,39.005,-82.561,126.17,-29.75,-17.834,21.788,21.788,39.685,5.2777,23.845,-67.692,-45.317,50.785,50.785,5.1386,-11.582,18.551,10.02,-4.2946,-2.9234,-2.9234,5.4484,8.597,-16.698,7.4974,-4.3012,-2.2682,-2.2682,0.8,1,100,0
100.0,39.256,-83.084,127.08,-29.235,-18.055,21.634,21.634,39.94,5.7013,22.998,-67.311,-45.52,50.662,50.662,5.0172,-10.471,18.105,10.308,-4.4168,-3.0814,-3.0814,5.0825,8.4728,-16.933,7.6237,-4.0758,-2.4561,-2.4561,0.8,1,100,0
100.0,39.339,-83.605,127.49,-29.031,-18.355,21.387,21.387,40.086,5.9923,22.733,-67.23,-45.887,50.468,50.468,1.6591,-10.411,8.191,4.0748,-6.0021,-4.937,-4.937,2.9351,5.8192,-5.3066,1.6226,-7.3339,-3.8823,-3.8823,0.8,1,100,0
100.0,39.405,-84.021,127.81,-28.876,-18.608,21.197,21.197,40.207,6.2198,22.556,-67.208,-46.165,50.331,50.331,1.3072,-8.3162,6.46,3.0978,-5.0663,-3.8039,-3.8039,2.4197,4.5503,-3.5467,0.43645,-5.5507,-2.7274,-2.7274,0.8,1,100,0
100.0,39.457,-84.354,128.07,-28.746,-18.813,21.049,21.049,40.303,6.3906,22.433,-67.213,-46.368,50.234,50.234,1.055,-6.6585,5.2,2.6011,-4.0875,-2.9448,-2.9448,1.9192,3.4164,-2.4482,-0.10532,-4.0724,-1.9428,-1.9428,0.8,1,100,0
100.0,39.498,-84.621,128.28,-28.634,-18.976,20.934,20.934,40.379,6.5174,22.35,-67.234,-46.517,50.165,50.165,0.81436,-5.3383,4.2112,2.2423,-3.2618,-2.3027,-2.3027,1.5204,2.5372,-1.6744,-0.40571,-2.9726,-1.3834,-1.3834,0.8,1,100,0
100.0,39.529,-84.835,128.45,-28.536,-19.105,20.843,20.843,40.44,6.6112,22.293,-67.262,-46.625,50.116,50.116,0.61117,-4.2847,3.4197,1.9568,-2.5877,-1.8205,-1.8205,1.2097,1.8753,-1.1235,-0.57551,-2.1707,-0.97487,-0.97487,0.8,1,100,0
100.0,39.546,-84.996,128.6,-28.453,-19.214,20.771,20.771,40.496,6.6832,22.258,-67.296,-46.706,50.085,50.085,0.35114,-3.2262,2.8884,1.6665,-2.1856,-1.4375,-1.4375,1.1214,1.44,-0.71358,-0.68056,-1.6124,-0.6294,-0.6294,0.8,1,100,0
100.0,39.559,-85.12,128.71,-28.378,-19.303,20.712,20.712,40.541,6.7366,22.236,-67.332,-46.765,50.063,50.063,0.25757,-2.4886,2.3173,1.4918,-1.7638,-1.178,-1.178,0.90363,1.0683,-0.43252,-0.72072,-1.1829,-0.43023,-0.43023,0.8,1,100,0
100.0,39.57,-85.219,128.81,-28.31,-19.371,20.664,20.664,40.576,6.7755,22.224,-67.368,-46.808,50.049,50.049,0.21672,-1.9619,1.8447,1.3514,-1.3756,-0.97808,-0.97808,0.70194,0.77694,-0.24572,-0.71703,-0.86668,-0.28748,-0.28748,0.8,1,100,0
100.0,39.579,-85.296,128.88,-28.25,-19.425,20.623,20.623,40.605,6.8041,22.218,-67.403,-46.841,50.04,50.04,0.17431,-1.5386,1.4942,1.2133,-1.0673,-0.81392,-0.81392,0.57135,0.57224,-0.11167,-0.69586,-0.6434,-0.1741,-0.1741,0.8,1,100,0
100.0,39.586,-85.357,128.94,-28.195,-19.465,20.588,20.589,40.627,6.8247,22.217,-67.436,-46.865,50.036,50.036,0.14753,-1.2283,1.2027,1.0924,-0.8117,-0.68705,-0.68705,0.45305,0.41178,-0.025647,-0.66198,-0.48235,-0.09132,-0.09132,0.8,1,100,0
100.0,39.592,-85.406,128.99,-28.146,-19.496,20.559,20.559,40.646,6.8397,22.219,-67.467,-46.883,50.034,50.034,0.12048,-0.97508,0.98355,0.97952,-0.61427,-0.58197,-0.58197,0.37532,0.30078,0.035688,-0.62278,-0.36746,-0.028892,-0.028892,0.8,1,100,0
100.0,39.597,-85.451,129.03,-28.102,-19.518,20.533,20.533,40.656,6.8467,22.219,-67.496,-46.897,50.036,50.036,0.10641,-0.90036,0.74613,0.88635,-0.4304,-0.51998,-0.51998,0.18926,0.13893,0.0098013,-0.57428,-0.28489,0.028277,0.028277,0.8,1,100,0
100.0,39.601,-85.49,129.06,-28.063,-19.532,20.511,20.511,40.664,6.8513,22.221,-67.523,-46.909,50.039,50.039,0.068165,-0.7826,0.63521,0.78633,-0.2965,-0.43898,-0.43898,0.15989,0.093258,0.040469,-0.53153,-0.22424,0.061677,0.061677,0.8,1,100,0
100.0,39.602,-85.524,129.09,-28.027,-19.542,20.493,20.493,40.67,6.8544,22.224,-67.547,-46.917,50.043,50.043,0.033331,-0.67578,0.54368,0.70146,-0.20248,-0.37604,-0.37604,0.13688,0.061164,0.060037,-0.48836,-0.1784,0.081757,0.081757,0.8,1,100,0
100.0,39.603,-85.553,129.11,-27.996,-19.549,20.476,20.476,40.676,6.8563,22.228,-67.569,-46.925,50.047,50.047,0.0060789,-0.58111,0.46555,0.62933,-0.13534,-0.32529,-0.32529,0.11844,0.038215,0.071034,-0.44861,-0.14412,0.092208,0.092208,0.8,1,100,0
100.0,39.602,-85.578,129.13,-27.968,-19.554,20.462,20.462,40.681,6.8574,22.232,-67.59,-46.931,50.052,50.052,-0.013319,-0.49792,0.40107,0.5666,-0.086641,-0.28492,-0.28492,0.10259,0.022548,0.077113,-0.4094,-0.11768,0.097535,0.097535,0.8,1,100,0
100.0,39.601,-85.599,129.15,-27.942,-19.556,20.45,20.45,40.686,6.858,22.236,-67.609,-46.935,50.057,50.057,-0.026569,-0.42579,0.34588,0.5122,-0.050885,-0.25111,-0.25111,0.08968,0.011364,0.078172,-0.37347,-0.096989,0.098286,0.098286,0.8,1,100,0
100.0,39.599,-85.617,129.16,-27.919,-19.557,20.438,20.438,40.69,6.8582,22.239,-67.626,-46.939,50.062,50.062,-0.035585,-0.3635,0.29889,0.46363,-0.025408,-0.22253,-0.22253,0.07964,0.0042518,0.077249,-0.34096,-0.081552,0.096852,0.096852,0.8,0,100,0
100.0,39.597,-85.633,129.17,-27.898,-19.558,20.429,20.429,40.693,6.8581,22.243,-67.641,-46.943,50.067,50.067,-0.040845,-0.30982,0.259,0.42064,-0.0066936,-0.19869,-0.19869,0.069463,-0.0014343,0.074688,-0.3105,-0.069668,0.093642,0.093642,0.8,0,100,0
100.0,39.597,-85.635,129.18,-27.895,-19.558,20.427,20.427,40.694,6.8581,22.244,-67.643,-46.943,50.067,50.067,-0.0068985,-0.043713,0.040435,0.063145,-0.0001366,-0.029404,-0.029404,0.012636,-0.00084524,0.01168,-0.046309,-0.010518,0.015368,0.015368,0.8,0,100,0
100.0,39.597,-85.635,129.18,-27.894,-19.558,20.427,20.427,40.694,6.8581,22.244,-67.644,-46.944,50.067,50.067,-0.00040981,-0.0028687,0.0021857,0.0040298,-0.00010245,-0.0018783,-0.0018783,0.00075132,-0.00025613,0.00058057,-0.0028687,-0.00068302,0.00095623,0.00095623,0.8,0,100,0
100.0,39.596,-85.635,129.18,-27.894,-19.558,20.427,20.427,40.694,6.8581,22.244,-67.644,-46.944,50.068,50.068,-0.00040981,-0.0025955,0.0027321,0.0038249,6.8302e-05,-0.0018442,-0.0018442,0.00047811,0.00011099,0.00078547,-0.0030053,-0.00061472,0.00088792,0.00088792,0.8,0,100,0
100.0,39.596,-85.635,129.18,-27.894,-19.558,20.427,20.427,40.694,6.8581,22.244,-67.644,-46.944,50.068,50.068,-0.00040981,-0.0028687,0.0021857,0.0039274,0.0,-0.00181,-0.00181,0.00081962,-0.00012807,0.00075132,-0.0030053,-0.00068302,0.00081962,0.00081962,0.8,0,100,0
100.0,39.596,-85.635,129.18,-27.894,-19.558,20.427,20.427,40.694,6.8581,22.244,-67.644,-46.944,50.068,50.068,-0.00040981,-0.0027321,0.0024589,0.0038591,3.4151e-05,-0.0018783,-0.0018783,0.00068302,0.00015368,0.00075132,-0.0028687,-0.00054642,0.00095623,0.00095623,0.8,0,100,0
100.0,39.596,-85.635,129.18,-27.894,-19.558,20.427,20.427,40.694,6.8581,22.244,-67.644,-46.944,50.068,50.068,-0.00040981,-0.0027321,0.0021857,0.0038932,-3.4151e-05,-0.0019125,-0.0019125,0.00040981,-0.00025613,0.00075132,-0.0028687,-0.00075132,0.00095623,0.00095623,0.8,0,100,0
100.0,39.596,-85.636,129.18,-27.894,-19.558,20.426,20.427,40.694,6.8581,22.244,-67.644,-46.944,50.068,50.068,-0.00040981,-0.0027321,0.0024589,0.0039274,0.0,-0.00181,-0.00181,0.00088792,0.00011099,0.00071717,-0.0028687,-0.00054642,0.00095623,0.00095623,0.8,0,100,0
100.0,39.596,-85.636,129.18,-27.893,-19.558,20.426,20.426,40.694,6.8581,22.244,-67.644,-46.944,50.068,50.068,-0.00040981,-0.0027321,0.0021857,0.0038591,0.0,-0.00181,-0.00181,0.00034151,-0.00017929,0.00071717,-0.0031419,-0.00081962,0.00075132,0.00075132,0.8,0,100,0
100.0,39.596,-85.636,129.18,-27.893,-19.558,20.426,20.426,40.694,6.858,22.244,-67.645,-46.944,50.068,50.068,-0.00040981,-0.0027321,0.0024589,0.0038932,-3.4151e-05,-0.0019125,-0.0019125,0.00088792,-0.00024759,0.00051226,-0.0027321,-0.00047811,0.0010928,0.0010928,0.8,0,100,0
100.0,39.596,-85.636,129.18,-27.893,-19.558,20.426,20.426,40.694,6.8581,22.244,-67.645,-46.944,50.068,50.068,-0.00040981,-0.0027321,0.0021857,0.0039957,0.0,-0.0015709,-0.0015709,0.00054642,0.00032443,0.00075132,-0.0032785,-0.00075132,0.00081962,0.00081962,0.8,0,100,0
100.0,39.596,-85.636,129.18,-27.893,-19.558,20.426,20.426,40.694,6.8581,22.244,-67.645,-46.944,50.068,50.068,-0.00040981,-0.0027321,0.0021857,0.0037908,0.0,-0.0020832,-0.0020832,0.00081962,-0.00020491,0.00095623,-0.0025955,-0.00061472,0.0010245,0.0010245,0.8,0,100,0
100.0,39.596,-85.636,129.18,-27.893,-19.558,20.426,20.426,40.694,6.8581,22.244,-67.645,-46.944,50.068,50.068,-0.00040981,-0.0027321,0.0021857,0.0039274,0.0,-0.0017758,-0.0017758,0.00054642,3.4151e-05,0.00068302,-0.0030053,-0.00068302,0.00088792,0.00088792,0.8,0,100,0
100.0,39.596,-85.636,129.18,-27.892,-19.558,20.426,20.426,40.694,6.858,22.244,-67.645,-46.944,50.068,50.068,-0.00040981,-0.0025955,0.0024589,0.0038932,0.0,-0.00181,-0.00181,0.00061472,-0.00034151,0.00058057,-0.0027321,-0.00075132,0.00095623,0.00095623,0.8,0,100,0
100.0,39.596,-85.636,129.18,-27.892,-19.558,20.426,20.426,40.694,6.858,22.244,-67.645,-46.944,50.068,50.068,-0.00040981,-0.0027321,0.0024589,0.0036883,6.8302e-05,-0.0020832,-0.0020832,0.00054642,0.00018783,0.00075132,-0.0028687,-0.00027321,0.0010245,0.0010245,0.8,0,100,0
100.0,39.596,-85.637,129.18,-27.892,-19.558,20.426,20.426,40.694,6.858,22.244,-67.645,-46.944,50.068,50.068,-0.00040981,-0.0027321,0.0021857,0.0039957,0.0,-0.0016051,-0.0016051,0.00068302,-6.8302e-05,0.00071717,-0.0030053,-0.00081962,0.00081962,0.00081962,0.8,0,100,0
100.0,39.596,-85.637,129.18,-27.892,-19.558,20.426,20.426,40.694,6.858,22.244,-67.646,-46.944,50.068,50.068,-0.00040981,-0.0027321,0.0024589,0.0039274,0.0,-0.0017075,-0.0017075,0.00061472,-4.2689e-05,0.00040981,-0.0030053,-0.00054642,0.00095623,0.00095623,0.8,0,100,0
100.0,39.596,-85.637,129.18,-27.892,-19.558,20.426,20.426,40.695,6.858,22.244,-67.646,-46.944,50.068,50.068,-0.00040981,-0.0027321,0.0021857,0.0037225,0.00010245,-0.0019808,-0.0019808,0.0012294,-0.00029882,0.0014002,-0.0025955,-0.00088792,0.00075132,0.00075132,0.8,0,100,0
100.0,39.596,-85.637,129.18,-27.891,-19.558,20.425,20.426,40.695,6.858,22.244,-67.646,-46.944,50.068,50.068,-0.00040981,-0.0027321,0.0024589,0.0039957,-6.8302e-05,-0.00181,-0.00181,0.0,0.00021344,0.00030736,-0.0028687,-0.00040981,0.0011611,0.0011611,0.8,0,100,0
100.0,39.596,-85.637,129.18,-27.891,-19.558,20.425,20.425,40.695,6.8581,22.244,-67.646,-46.944,50.068,50.068,-0.00040981,-0.0027321,0.0021857,0.0038932,0.0,-0.0017758,-0.0017758,0.00061472,0.0003842,0.00058057,-0.0030053,-0.00034151,0.00095623,0.00095623,0.8,0,100,0
100.0,39.596,-85.637,129.18,-27.891,-19.558,20.425,20.425,40.695,6.858,22.244,-67.646,-46.944,50.068,50.068,-0.00040981,-0.0027321,0.0021857,0.0037566,6.8302e-05,-0.0018442,-0.0018442,0.00068302,-0.00017075,0.00092208,-0.0030053,-0.00075132,0.00075132,0.00075132,0.8,0,100,0
100.0,39.596,-85.637,129.18,-27.891,-19.558,20.425,20.425,40.695,6.858,22.244,-67.646,-46.944,50.068,50.068,-0.00040981,-0.0027321,0.0021857,0.0038932,0.0,-0.0017758,-0.0017758,0.00061472,-0.00027321,0.00054642,-0.0028687,-0.00068302,0.00088792,0.00088792,0.8,0,100,0
100.0,39.596,-85.638,129.18,-27.891,-19.558,20.425,20.425,40.695,6.858,22.244,-67.646,-46.944,50.068,50.068,-0.00040981,-0.0027321,0.0021857,0.0038932,0.0,-0.0017417,-0.0017417,0.00061472,-0.00035005,0.00095623,-0.0028687,-0.0010245,0.00081962,0.00081962,0.8,0,100,0
100.0,39.596,-85.638,129.18,-27.89,-19.558,20.425,20.425,40.695,6.858,22.244,-67.647,-46.944,50.068,50.068,-0.00040981,-0.0024589,0.0027321,0.00362,0.00017075,-0.0018783,-0.0018783,0.00075132,0.00029028,0.00040981,-0.0030053,-0.00020491,0.0010245,0.0010245,0.8,0,100,0
100.0,39.596,-85.638,129.18,-27.89,-19.558,20.425,20.425,40.695,6.858,22.244,-67.647,-46.944,50.068,50.068,-0.00040981,-0.0025955,0.0024589,0.0039274,0.0,-0.0016734,-0.0016734,0.00054642,0.00021344,0.00071717,-0.0030053,-0.00061472,0.00095623,0.00095623,0.8,0,100,0
100.0,39.596,-85.638,129.18,-27.89,-19.558,20.425,20.425,40.695,6.858,22.245,-67.647,-46.944,50.069,50.069,-0.00047811,-0.0028687,0.0019125,0.0039274,-6.8302e-05,-0.0018442,-0.0018442,0.00088792,-0.00042689,0.0010587,-0.0027321,-0.00095623,0.00081962,0.00081962,0.8,0,100,0
100.0,39.596,-85.638,129.18,-27.89,-19.558,20.425,20.425,40.695,6.858,22.245,-67.647,-46.944,50.069,50.069,-0.00040981,-0.0025955,0.0024589,0.0036883,6.8302e-05,-0.0019808,-0.0019808,0.00027321,0.00020491,0.00071717,-0.0027321,-0.00034151,0.0010928,0.0010928,0.8,0,100,0
100.0,39.596,-85.638,129.18,-27.89,-19.558,20.425,20.425,40.695,6.858,22.245,-67.647,-46.944,50.069,50.069,-0.00040981,-0.0025955,0.0021857,0.0039615,0.0,-0.0016051,-0.0016051,0.00061472,-3.4151e-05,0.00061472,-0.0031419,-0.00075132,0.00081962,0.00081962,0.8,0,100,0
100.0,39.596,-85.638,129.18,-27.889,-19.558,20.425,20.425,40.695,6.858,22.245,-67.647,-46.944,50.069,50.069,-0.00040981,-0.0027321,0.0021857,0.0038249,-3.4151e-05,-0.0019808,-0.0019808,0.00081962,-0.00046104,0.00078547,-0.0025955,-0.00068302,0.00095623,0.00095623,0.8,0,100,0
100.0,39.596,-85.639,129.18,-27.889,-19.558,20.424,20.425,40.695,6.858,22.245,-67.647,-46.944,50.069,50.069,-0.00040981,-0.0027321,0.0019125,0.0039274,-6.8302e-05,-0.0018442,-0.0018442,0.00047811,0.00012807,0.00068302,-0.0027321,-0.00047811,0.0010245,0.0010245,0.8,0,100,0
100.0,39.596,-85.639,129.18,-27.889,-19.558,20.424,20.424,40.695,6.858,22.245,-67.648,-46.944,50.069,50.069,-0.00040981,-0.0023223,0.0030053,0.00362,0.00023906,-0.0017075,-0.0017075,0.00081962,6.8302e-05,0.00061472,-0.0030053,-0.00054642,0.00081962,0.00081962,0.8,0,100,0
100.0,39.596,-85.639,129.18,-27.889,-19.558,20.424,20.424,40.695,6.858,22.245,-67.648,-46.944,50.069,50.069,-0.00047811,-0.0028687,0.0019125,0.0039274,-3.4151e-05,-0.0017758,-0.0017758,0.00047811,-5.1226e-05,0.00061472,-0.0030053,-0.00061472,0.00081962,0.00081962,0.8,0,100,0
100.0,39.596,-85.639,129.18,-27.889,-19.558,20.424,20.424,40.695,6.858,22.245,-67.648,-46.944,50.069,50.069,-0.00040981,-0.0027321,0.0021857,0.0038249,0.0,-0.0019125,-0.0019125,0.00054642,-0.00023906,0.00088792,-0.0025955,-0.00075132,0.00095623,0.00095623,0.8,0,100,0
100.0,39.596,-85.639,129.18,-27.889,-19.558,20.424,20.424,40.695,6.858,22.245,-67.648,-46.944,50.069,50.069,-0.00040981,-0.0027321,0.0021857,0.0038591,3.4151e-05,-0.0017075,-0.0017075,0.00081962,0.00011953,0.00064887,-0.0030053,-0.00054642,0.00081962,0.00081962,0.8,0,100,0
100.0,39.596,-85.639,129.18,-27.888,-19.558,20.424,20.424,40.695,6.858,22.245,-67.648,-46.945,50.069,50.069,-0.00040981,-0.0024589,0.0024589,0.0035858,0.0001366,-0.0019808,-0.0019808,0.00068302,-0.00023906,0.00081962,-0.0027321,-0.00054642,0.00088792,0.00088792,0.8,0,100,0
100.0,39.596,-85.639,129.18,-27.888,-19.558,20.424,20.424,40.695,6.858,22.245,-67.648,-46.945,50.069,50.069,-0.00047811,-0.0027321,0.0021857,0.0039615,-3.4151e-05,-0.0016392,-0.0016392,0.00040981,-0.00011099,0.00051226,-0.0030053,-0.00068302,0.00088792,0.00088792,0.8,0,100,0
100.0,39.596,-85.639,129.18,-27.888,-19.558,20.424,20.424,40.695,6.858,22.245,-67.648,-46.945,50.069,50.069,-0.00040981,-0.0025955,0.0021857,0.0038591,0.0,-0.0018442,-0.0018442,0.00075132,9.3915e-05,0.00085377,-0.0025955,-0.00047811,0.0010245,0.0010245,0.8,0,100,0
100.0,39.596,-85.64,129.18,-27.888,-19.558,20.424,20.424,40.695,6.858,22.245,-67.649,-46.945,50.069,50.069,-0.00047811,-0.0027321,0.0019125,0.0039957,-3.4151e-05,-0.0016734,-0.0016734,0.00075132,-0.00033297,0.00095623,-0.0027321,-0.00095623,0.00081962,0.00081962,0.8,0,100,0
100.0,39.596,-85.64,129.18,-27.888,-19.558,20.424,20.424,40.695,6.858,22.245,-67.649,-46.945,50.069,50.069,-0.00040981,-0.0024589,0.0024589,0.0036883,0.00010245,-0.0018442,-0.0018442,0.00040981,7.684e-05,0.00075132,-0.0028687,-0.00054642,0.00088792,0.00088792,0.8,0,100,0
100.0,39.596,-85.64,129.18,-27.887,-19.558,20.424,20.424,40.695,6.858,22.245,-67.649,-46.945,50.069,50.069,-0.00040981,-0.0025955,0.0021857,0.0037566,0.00010245,-0.0017417,-0.0017417,0.00047811,0.00040127,0.00044396,-0.0030053,-0.00027321,0.00095623,0.00095623,0.8,0,100,0
100.0,39.596,-85.64,129.18,-27.887,-19.558,20.424,20.424,40.695,6.858,22.245,-67.649,-46.945,50.069,50.069,-0.00040981,-0.0024589,0.0024589,0.0037225,0.0001366,-0.0016734,-0.0016734,0.00075132,0.00021344,0.00068302,-0.0030053,-0.00047811,0.00081962,0.00081962,0.8,0,100,0
100.0,39.596,-85.64,129.18,-27.887,-19.558,20.423,20.423,40.695,6.858,22.245,-67.649,-46.945,50.069,50.069,-0.00047811,-0.0025955,0.0021857,0.0038932,-3.4151e-05,-0.0017758,-0.0017758,0.00061472,-0.00064887,0.00068302,-0.0025955,-0.00088792,0.00095623,0.00095623,0.8,0,100,0
100.0,39.596,-85.64,129.18,-27.887,-19.558,20.423,20.423,40.695,6.858,22.245,-67.649,-46.945,50.069,50.069,-0.00047811,-0.0027321,0.0019125,0.0038591,0.0,-0.0017075,-0.0017075,0.00095623,0.00022198,0.00088792,-0.0028687,-0.00054642,0.00088792,0.00088792,0.8,0,100,0
100.0,39.596,-85.64,129.18,-27.887,-19.558,20.423,20.423,40.695,6.858,22.245,-67.649,-46.945,50.069,50.069,-0.00040981,-0.0025955,0.0024589,0.0036883,6.8302e-05,-0.0019466,-0.0019466,0.00040981,-0.00024759,0.00047811,-0.0027321,-0.00047811,0.0010245,0.0010245,0.8,0,100,0
100.0,39.596,-85.64,129.18,-27.886,-19.558,20.423,20.423,40.695,6.858,22.245,-67.65,-46.945,50.069,50.069,-0.00040981,-0.0025955,0.0021857,0.0037225,0.00010245,-0.0017758,-0.0017758,0.00061472,1.7075e-05,0.00092208,-0.0028687,-0.00068302,0.00081962,0.00081962,0.8,0,100,0
100.0,39.596,-85.641,129.18,-27.886,-19.558,20.423,20.423,40.695,6.858,22.245,-67.65,-46.945,50.069,50.069,-0.00047811,-0.0025955,0.0021857,0.0038591,3.4151e-05,-0.0016051,-0.0016051,0.00054642,2.5613e-05,0.00044396,-0.0030053,-0.00061472,0.00088792,0.00088792,0.8,0,100,0
100.0,39.596,-85.641,129.18,-27.886,-19.558,20.423,20.423,40.695,6.858,22.245,-67.65,-46.945,50.069,50.069,-0.00040981,-0.0025955,0.0024589,0.0036542,0.00010245,-0.0019125,-0.0019125,0.00054642,0.00011953,0.00081962,-0.0027321,-0.00047811,0.00095623,0.00095623,0.8,0,100,0
100.0,39.596,-85.641,129.18,-27.886,-19.558,20.423,20.423,40.695,6.858,22.245,-67.65,-46.945,50.07,50.07,-0.00047811,-0.0027321,0.0019125,0.0038932,-3.4151e-05,-0.0017075,-0.0017075,0.00047811,-6.8302e-05,0.00068302,-0.0028687,-0.00068302,0.00088792,0.00088792,0.8,0,100,0
100.0,39.596,-85.641,129.18,-27.886,-19.558,20.423,20.423,40.695,6.858,22.245,-67.65,-46.945,50.07,50.07,-0.00040981,-0.0024589,0.0024589,0.0036883,0.00010245,-0.0017758,-0.0017758,0.00088792,0.00011953,0.00040981,-0.0028687,-0.00027321,0.0010245,0.0010245,0.8,0,100,0
100.0,39.596,-85.641,129.18,-27.885,-19.558,20.423,20.423,40.695,6.858,22.245,-67.65,-46.945,50.07,50.07,-0.00040981,-0.0025955,0.0021857,0.0037225,6.8302e-05,-0.0017758,-0.0017758,0.0001366,-0.0004525,0.001127,-0.0028687,-0.0010928,0.00068302,0.00068302,0.8,0,100,0
100.0,39.595,-85.641,129.18,-27.885,-19.558,20.423,20.423,40.696,6.858,22.245,-67.65,-46.945,50.07,50.07,-0.00047811,-0.0025955,0.0019125,0.0038249,0.0,-0.0017758,-0.0017758,0.0011611,-8.5377e-06,0.00085377,-0.0025955,-0.00054642,0.00095623,0.00095623,0.8,0,100,0
100.0,39.595,-85.641,129.18,-27.885,-19.558,20.423,20.423,40.696,6.858,22.245,-67.651,-46.945,50.07,50.07,-0.00040981,-0.0024589,0.0024589,0.0037908,6.8302e-05,-0.0016392,-0.0016392,0.00040981,-4.2689e-05,0.00037566,-0.0030053,-0.00054642,0.00088792,0.00088792,0.8,0,100,0
100.0,39.595,-85.642,129.18,-27.885,-19.558,20.422,20.422,40.696,6.858,22.245,-67.651,-46.945,50.07,50.07,-0.00047811,-0.0027321,0.0019125,0.0037908,0.0,-0.00181,-0.00181,0.00027321,0.00019637,0.00051226,-0.0030053,-0.00040981,0.00088792,0.00088792,0.8,0,100,0
100.0,39.595,-85.642,129.18,-27.885,-19.558,20.422,20.422,40.696,6.858,22.246,-67.651,-46.945,50.07,50.07,-0.00040981,-0.0025955,0.0021857,0.0036883,0.00010245,-0.0018442,-0.0018442,0.00061472,-0.00023052,0.00092208,-0.0027321,-0.00075132,0.00081962,0.00081962,0.8,0,100,0
100.0,39.595,-85.642,129.18,-27.885,-19.558,20.422,20.422,40.696,6.858,22.246,-67.651,-46.945,50.07,50.07,-0.00040981,-0.0024589,0.0024589,0.0038249,3.4151e-05,-0.0016734,-0.0016734,0.0011611,-0.00019637,0.00061472,-0.0024589,-0.00054642,0.0010928,0.0010928,0.8,0,100,0
100.0,39.595,-85.642,129.18,-27.884,-19.558,20.422,20.422,40.696,6.8579,22.246,-67.651,-46.945,50.07,50.07,-0.00040981,-0.0024589,0.0021857,0.0035517,0.00017075,-0.0018442,-0.0018442,0.00034151,-0.00012807,0.00054642,-0.0031419,-0.00054642,0.00075132,0.00075132,0.8,0,100,0
100.0,39.595,-85.642,129.18,-27.884,-19.558,20.422,20.422,40.696,6.858,22.246,-67.651,-46.945,50.07,50.07,-0.00047811,-0.0027321,0.0019125,0.0037566,6.8302e-05,-0.0017417,-0.0017417,0.00040981,0.0003842,0.00088792,-0.0030053,-0.00047811,0.00081962,0.00081962,0.8,0,100,0
100.0,39.595,-85.642,129.18,-27.884,-19.558,20.422,20.422,40.696,6.858,22.246,-67.651,-46.945,50.07,50.07,-0.00047811,-0.0024589,0.0021857,0.0038932,0.0,-0.0016392,-0.0016392,0.00081962,-0.00017929,0.00085377,-0.0024589,-0.00075132,0.0010245,0.0010245,0.8,0,100,0
100.0,39.595,-85.642,129.18,-27.884,-19.558,20.422,20.422,40.696,6.8579,22.246,-67.652,-46.945,50.07,50.07,-0.00040981,-0.0025955,0.0021857,0.0037566,3.4151e-05,-0.0017758,-0.0017758,0.00054642,-0.00029882,0.00064887,-0.0027321,-0.00068302,0.00088792,0.00088792,0.8,0,100,0
100.0,39.595,-85.642,129.18,-27.884,-19.558,20.422,20.422,40.696,6.8579,22.246,-67.652,-46.945,50.07,50.07,-0.00040981,-0.0024589,0.0024589,0.0035858,0.00017075,-0.0017758,-0.0017758,0.00081962,7.684e-05,0.00075132,-0.0028687,-0.00047811,0.00081962,0.00081962,0.8,0,100,0
100.0,39.595,-85.643,129.18,-27.883,-19.558,20.422,20.422,40.696,6.858,22.246,-67.652,-46.945,50.07,50.07,-0.00040981,-0.0024589,0.0021857,0.0038591,-3.4151e-05,-0.0017075,-0.0017075,0.00047811,0.00010245,0.00058057,-0.0025955,-0.00047811,0.0010928,0.0010928,0.8,0,100,0
100.0,39.595,-85.643,129.18,-27.883,-19.558,20.422,20.422,40.696,6.8579,22.246,-67.652,-46.945,50.07,50.07,-0.00047811,-0.0027321,0.0016392,0.0038591,-3.4151e-05,-0.0016734,-0.0016734,0.00068302,-0.00043542,0.00058057,-0.0028687,-0.00075132,0.00081962,0.00081962,0.8,0,100,0
100.0,39.595,-85.643,129.18,-27.883,-19.558,20.422,20.422,40.696,6.8579,22.246,-67.652,-46.945,50.07,50.07,-0.00040981,-0.0023223,0.0024589,0.0035858,0.00017075,-0.0017417,-0.0017417,0.00034151,7.684e-05,0.00088792,-0.0028687,-0.00061472,0.00081962,0.00081962,0.8,0,100,0
100.0,39.595,-85.643,129.18,-27.883,-19.558,20.421,20.422,40.696,6.8579,22.246,-67.652,-46.945,50.07,50.07,-0.00040981,-0.0024589,0.0024589,0.00362,0.0001366,-0.0017758,-0.0017758,0.00081962,-9.3915e-05,0.00071717,-0.0027321,-0.00054642,0.00088792,0.00088792,0.8,0,100,0
100.0,39.595,-85.643,129.18,-27.883,-19.558,20.421,20.421,40.696,6.8579,22.246,-67.652,-46.945,50.07,50.07,-0.00047811,-0.0025955,0.0019125,0.0038591,-6.8302e-05,-0.0017758,-0.0017758,0.00081962,-0.00019637,0.00078547,-0.0024589,-0.00061472,0.0010245,0.0010245,0.8,0,100,0
100.0,39.595,-85.643,129.18,-27.882,-19.558,20.421,20.421,40.696,6.8579,22.246,-67.653,-46.945,50.07,50.07,-0.00040981,-0.0024589,0.0021857,0.0036883,0.0001366,-0.0016051,-0.0016051,0.00047811,0.00055495,0.00051226,-0.0031419,-0.00027321,0.00088792,0.00088792,0.8,0,100,0
100.0,39.595,-85.643,129.18,-27.882,-19.558,20.421,20.421,40.696,6.8579,22.246,-67.653,-46.945,50.07,50.07,-0.00040981,-0.0024589,0.0021857,0.0035858,6.8302e-05,-0.0020149,-0.0020149,0.00047811,-0.00064887,0.0010928,-0.0023223,-0.00088792,0.00088792,0.00088792,0.8,0,100,0
100.0,39.595,-85.643,129.18,-27.882,-19.558,20.421,20.421,40.696,6.8579,22.246,-67.653,-46.946,50.07,50.07,-0.00047811,-0.0024589,0.0021857,0.0037225,0.0001366,-0.0014685,-0.0014685,0.00075132,8.5377e-05,0.00030736,-0.0031419,-0.00047811,0.00075132,0.00075132,0.8,0,100,0
100.0,39.595,-85.644,129.18,-27.882,-19.558,20.421,20.421,40.696,6.8579,22.246,-67.653,-46.946,50.07,50.07,-0.00047811,-0.0025955,0.0019125,0.0037566,3.4151e-05,-0.0017417,-0.0017417,0.00061472,-0.00020491,0.00068302,-0.0027321,-0.00061472,0.00088792,0.00088792,0.8,0,100,0
100.0,39.595,-85.644,129.18,-27.882,-19.558,20.421,20.421,40.696,6.8579,22.246,-67.653,-46.946,50.071,50.071,-0.00040981,-0.0024589,0.0021857,0.0037566,0.0,-0.0018442,-0.0018442,0.00061472,-8.5377e-06,0.0010928,-0.0023223,-0.00061472,0.0010928,0.0010928,0.8,0,100,0
100.0,39.595,-85.644,129.18,-27.882,-19.558,20.421,20.421,40.696,6.8579,22.246,-67.653,-46.946,50.071,50.071,-0.00040981,-0.0023223,0.0024589,0.0034834,0.00023906,-0.0017417,-0.0017417,0.00027321,0.00015368,0.00054642,-0.0031419,-0.00040981,0.00068302,0.00068302,0.8,0,100,0
100.0,39.595,-85.644,129.18,-27.881,-19.558,20.421,20.421,40.696,6.8579,22.246,-67.653,-46.946,50.071,50.071,-0.00047811,-0.0025955,0.0016392,0.0037566,0.0,-0.0017417,-0.0017417,0.00075132,-0.00023906,0.00058057,-0.0027321,-0.00054642,0.00088792,0.00088792,0.8,0,100,0
100.0,39.595,-85.644,129.18,-27.881,-19.558,20.421,20.421,40.696,6.8579,22.246,-67.654,-46.946,50.071,50.071,-0.00040981,-0.0024589,0.0021857,0.0037908,3.4151e-05,-0.0016051,-0.0016051,0.00040981,3.4151e-05,0.00058057,-0.0025955,-0.00061472,0.0010245,0.0010245,0.8,0,100,0
100.0,39.595,-85.644,129.18,-27.881,-19.558,20.421,20.421,40.696,6.8579,22.246,-67.654,-46.946,50.071,50.071,-0.00040981,-0.0023223,0.0024589,0.0035517,0.00017075,-0.0017075,-0.0017075,0.00081962,-0.00025613,0.00078547,-0.0027321,-0.00068302,0.00075132,0.00075132,0.8,0,100,0
100.0,39.595,-85.644,129.18,-27.881,-19.558,20.421,20.421,40.696,6.8579,22.246,-67.654,-46.946,50.071,50.071,-0.00040981,-0.0025955,0.0019125,0.0036542,6.8302e-05,-0.00181,-0.00181,0.00061472,0.00011953,0.00054642,-0.0028687,-0.00034151,0.00088792,0.00088792,0.8,0,100,0
100.0,39.595,-85.644,129.18,-27.881,-19.558,20.42,20.42,40.696,6.8579,22.246,-67.654,-46.946,50.071,50.071,-0.00047811,-0.0024589,0.0019125,0.0038249,3.4151e-05,-0.0015368,-0.0015368,0.00068302,-0.00012807,0.00092208,-0.0027321,-0.00088792,0.00081962,0.00081962,0.8,0,100,0
100.0,39.595,-85.645,129.18,-27.88,-19.558,20.42,20.42,40.696,6.8579,22.246,-67.654,-46.946,50.071,50.071,-0.00040981,-0.0024589,0.0019125,0.0036883,3.4151e-05,-0.0017758,-0.0017758,0.0001366,-8.5377e-05,0.00064887,-0.0027321,-0.00054642,0.00095623,0.00095623,0.8,0,100,0
100.0,39.595,-85.645,129.18,-27.88,-19.558,20.42,20.42,40.696,6.8579,22.246,-67.654,-46.946,50.071,50.071,-0.00040981,-0.0023223,0.0024589,0.00362,0.00010245,-0.0017417,-0.0017417,0.00075132,9.3915e-05,0.00078547,-0.0024589,-0.00047811,0.0010245,0.0010245,0.8,0,100,0
100.0,39.595,-85.645,129.18,-27.88,-19.558,20.42,20.42,40.696,6.8579,22.246,-67.654,-46.946,50.071,50.071,-0.00040981,-0.0024589,0.0019125,0.0035517,0.00017075,-0.0017417,-0.0017417,0.00047811,-7.684e-05,0.00051226,-0.0031419,-0.00054642,0.00068302,0.00068302,0.8,0,100,0
100.0,39.595,-85.645,129.18,-27.88,-19.558,20.42,20.42,40.696,6.8579,22.246,-67.654,-46.946,50.071,50.071,-0.00040981,-0.0024589,0.0021857,0.0036883,6.8302e-05,-0.0017075,-0.0017075,0.00061472,8.5377e-06,0.00088792,-0.0024589,-0.00061472,0.0010245,0.0010245,0.8,0,100,0
100.0,39.595,-85.645,129.18,-27.88,-19.558,20.42,20.42,40.696,6.8579,22.246,-67.655,-46.946,50.071,50.071,-0.00040981,-0.0023223,0.0021857,0.0036542,0.0001366,-0.0016051,-0.0016051,0.00068302,-0.00010245,0.00071717,-0.0028687,-0.00068302,0.00081962,0.00081962,0.8,0,100,0
100.0,39.595,-85.645,129.19,-27.88,-19.558,20.42,20.42,40.696,6.8579,22.247,-67.655,-46.946,50.071,50.071,-0.00040981,-0.0024589,0.0021857,0.00362,6.8302e-05,-0.0018442,-0.0018442,0.00068302,-0.0001366,0.00068302,-0.0023223,-0.00040981,0.0010928,0.0010928,0.8,0,100,0
100.0,39.595,-85.645,129.19,-27.879,-19.558,20.42,20.42,40.696,6.8579,22.247,-67.655,-46.946,50.071,50.071,-0.00047811,-0.0024589,0.0019125,0.00362,0.00017075,-0.0015026,-0.0015026,0.00075132,9.3915e-05,0.00075132,-0.0031419,-0.00068302,0.00054642,0.00054642,0.8,0,100,0
100.0,39.595,-85.645,129.19,-27.879,-19.558,20.42,20.42,40.697,6.8579,22.247,-67.655,-46.946,50.071,50.071,-0.00040981,-0.0024589,0.0019125,0.0037225,-3.4151e-05,-0.0018442,-0.0018442,0.00027321,-0.00035858,0.00051226,-0.0023223,-0.00054642,0.0011611,0.0011611,0.8,0,100,0
100.0,39.595,-85.645,129.19,-27.879,-19.558,20.42,20.42,40.697,6.8579,22.247,-67.655,-46.946,50.071,50.071,-0.00047811,-0.0023223,0.0021857,0.0037225,0.00010245,-0.0015026,-0.0015026,0.00047811,6.8302e-05,0.00064887,-0.0028687,-0.00068302,0.00081962,0.00081962,0.8,0,100,0
100.0,39.595,-85.646,129.19,-27.879,-19.558,20.42,20.42,40.697,6.8579,22.247,-67.655,-46.946,50.071,50.071,-0.00040981,-0.0023223,0.0024589,0.0034151,0.00020491,-0.0018442,-0.0018442,0.00068302,0.00019637,0.00071717,-0.0027321,-0.00027321,0.00088792,0.00088792,0.8,0,100,0
100.0,39.595,-85.646,129.19,-27.879,-19.558,20.42,20.42,40.697,6.8579,22.247,-67.655,-46.946,50.071,50.071,-0.00047811,-0.0025955,0.0019125,0.0037566,3.4151e-05,-0.0016734,-0.0016734,0.00075132,-0.00019637,0.00075132,-0.0025955,-0.00068302,0.00088792,0.00088792,0.8,0,100,0
100.0,39.595,-85.646,129.19,-27.878,-19.558,20.419,20.419,40.697,6.8578,22.247,-67.656,-46.946,50.071,50.071,-0.00040981,-0.0023223,0.0021857,0.00362,0.00010245,-0.0017075,-0.0017075,0.00061472,-0.00052934,0.00054642,-0.0025955,-0.00068302,0.00088792,0.00088792,0.8,0,100,0
100.0,39.595,-85.646,129.19,-27.878,-19.558,20.419,20.419,40.697,6.8579,22.247,-67.656,-46.946,50.071,50.071,-0.00047811,-0.0024589,0.0019125,0.0037566,6.8302e-05,-0.0015368,-0.0015368,0.00068302,0.00064887,0.00051226,-0.0028687,-0.00020491,0.00095623,0.00095623,0.8,0,100,0
100.0,39.595,-85.646,129.19,-27.878,-19.558,20.419,20.419,40.697,6.8579,22.247,-67.656,-46.946,50.071,50.071,-0.00040981,-0.0023223,0.0021857,0.0035175,0.00017075,-0.0017075,-0.0017075,0.00040981,-0.00018783,0.00071717,-0.0028687,-0.00068302,0.00068302,0.00068302,0.8,0,100,0
100.0,39.595,-85.646,129.19,-27.878,-19.558,20.419,20.419,40.697,6.8579,22.247,-67.656,-46.946,50.071,50.071,-0.00040981,-0.0023223,0.0021857,0.00362,0.00010245,-0.0017417,-0.0017417,0.00061472,-0.00011953,0.00092208,-0.0024589,-0.00061472,0.00095623,0.00095623,0.8,0,100,0
100.0,39.595,-85.646,129.19,-27.878,-19.558,20.419,20.419,40.697,6.8578,22.247,-67.656,-46.946,50.071,50.071,-0.00040981,-0.0024589,0.0019125,0.0035517,0.0001366,-0.0017075,-0.0017075,0.00081962,-0.00024759,0.00061472,-0.0028687,-0.00054642,0.00075132,0.00075132,0.8,0,100,0
100.0,39.595,-85.646,129.19,-27.878,-19.558,20.419,20.419,40.697,6.8579,22.247,-67.656,-46.946,50.072,50.072,-0.00040981,-0.0023223,0.0021857,0.0036542,6.8302e-05,-0.0016734,-0.0016734,0.0001366,0.00019637,0.00075132,-0.0025955,-0.00054642,0.00095623,0.00095623,0.8,0,100,0
100.0,39.595,-85.647,129.19,-27.877,-19.557,20.419,20.419,40.697,6.8579,22.247,-67.656,-46.946,50.072,50.072,-0.00040981,-0.0023223,0.0021857,0.0035517,0.00017075,-0.0015709,-0.0015709,0.00081962,-3.4151e-05,0.00088792,-0.0028687,-0.00068302,0.00068302,0.00068302,0.8,0,100,0
100.0,39.595,-85.647,129.19,-27.877,-19.557,20.419,20.419,40.697,6.8578,22.247,-67.657,-46.946,50.072,50.072,-0.00047811,-0.0025955,0.0016392,0.00362,3.4151e-05,-0.00181,-0.00181,0.00047811,-0.0003159,0.00058057,-0.0025955,-0.00054642,0.00088792,0.00088792,0.8,0,100,0
100.0,39.595,-85.647,129.19,-27.877,-19.557,20.419,20.419,40.697,6.8578,22.247,-67.657,-46.946,50.072,50.072,-0.00047811,-0.0023223,0.0021857,0.0037225,3.4151e-05,-0.0016051,-0.0016051,0.00061472,3.4151e-05,0.00044396,-0.0025955,-0.00040981,0.0010245,0.0010245,0.8,0,100,0
100.0,39.595,-85.647,129.19,-27.877,-19.557,20.419,20.419,40.697,6.8578,22.247,-67.657,-46.946,50.072,50.072,-0.00040981,-0.0023223,0.0021857,0.0035517,0.0001366,-0.0016392,-0.0016392,0.00075132,-1.7075e-05,0.00075132,-0.0027321,-0.00054642,0.00081962,0.00081962,0.8,0,100,0
100.0,39.594,-85.647,129.19,-27.877,-19.557,20.419,20.419,40.697,6.8578,22.247,-67.657,-46.946,50.072,50.072,-0.00047811,-0.0024589,0.0019125,0.0034834,0.00017075,-0.0017417,-0.0017417,0.00047811,-0.00014514,0.0010928,-0.0028687,-0.00075132,0.00061472,0.00061472,0.8,0,100,0
100.0,39.594,-85.647,129.19,-27.876,-19.557,20.419,20.419,40.697,6.8578,22.247,-67.657,-46.946,50.072,50.072,-0.00047811,-0.0023223,0.0021857,0.0037225,0.0,-0.0017417,-0.0017417,0.00061472,-6.8302e-05,0.00040981,-0.0021857,-0.00034151,0.0012294,0.0012294,0.8,0,100,0
100.0,39.594,-85.647,129.19,-27.876,-19.557,20.418,20.418,40.697,6.8578,22.247,-67.657,-46.946,50.072,50.072,-0.00047811,-0.0024589,0.0019125,0.0035175,0.00017075,-0.0016051,-0.0016051,0.00054642,0.00010245,0.00075132,-0.0030053,-0.00054642,0.00068302,0.00068302,0.8,0,100,0
100.0,39.594,-85.647,129.19,-27.876,-19.557,20.418,20.418,40.697,6.8578,22.247,-67.657,-46.946,50.072,50.072,-0.00047811,-0.0023223,0.0021857,0.0035858,0.0001366,-0.0016051,-0.0016051,0.00040981,2.5613e-05,0.00037566,-0.0028687,-0.00040981,0.00088792,0.00088792,0.8,0,100,0
100.0,39.594,-85.648,129.19,-27.876,-19.557,20.418,20.418,40.697,6.8578,22.247,-67.657,-46.946,50.072,50.072,-0.00047811,-0.0024589,0.0016392,0.0037908,-3.4151e-05,-0.0016734,-0.0016734,0.00088792,-0.00012807,0.00061472,-0.0023223,-0.00047811,0.0010928,0.0010928,0.8,0,100,0
100.0,39.594,-85.648,129.19,-27.876,-19.557,20.418,20.418,40.697,6.8578,22.247,-67.658,-46.946,50.072,50.072,-0.00040981,-0.0021857,0.0021857,0.0032443,0.00030736,-0.0019125,-0.0019125,0.00034151,-0.00024759,0.0012294,-0.0027321,-0.00075132,0.00061472,0.00061472,0.8,0,100,0
100.0,39.594,-85.648,129.19,-27.876,-19.557,20.418,20.418,40.697,6.8578,22.247,-67.658,-46.947,50.072,50.072,-0.00047811,-0.0023223,0.0021857,0.0037566,3.4151e-05,-0.0014343,-0.0014343,0.00047811,0.00011099,0.00064887,-0.0025955,-0.00061472,0.0010245,0.0010245,0.8,0,100,0
100.0,39.594,-85.648,129.19,-27.875,-19.557,20.418,20.418,40.697,6.8578,22.247,-67.658,-46.947,50.072,50.072,-0.00040981,-0.0023223,0.0021857,0.0034834,0.00017075,-0.0017075,-0.0017075,0.00075132,-0.00016222,0.00064887,-0.0027321,-0.00047811,0.00081962,0.00081962,0.8,0,100,0
100.0,39.594,-85.648,129.19,-27.875,-19.557,20.418,20.418,40.697,6.8578,22.247,-67.658,-46.947,50.072,50.072,-0.00047811,-0.0024589,0.0016392,0.00362,6.8302e-05,-0.0017417,-0.0017417,0.00040981,-0.00019637,0.00085377,-0.0025955,-0.00068302,0.00075132,0.00075132,0.8,0,100,0
100.0,39.594,-85.648,129.19,-27.875,-19.557,20.418,20.418,40.697,6.8578,22.247,-67.658,-46.947,50.072,50.072,-0.00040981,-0.0023223,0.0021857,0.0035175,0.0001366,-0.0017075,-0.0017075,0.00075132,-0.00037566,0.00054642,-0.0025955,-0.00054642,0.00088792,0.00088792,0.8,0,100,0
100.0,39.594,-85.648,129.19,-27.875,-19.557,20.418,20.418,40.697,6.8578,22.247,-67.658,-46.947,50.072,50.072,-0.00040981,-0.0021857,0.0021857,0.0035517,0.00020491,-0.0014685,-0.0014685,0.00020491,0.00040981,0.00047811,-0.0030053,-0.00040981,0.00081962,0.00081962,0.8,0,100,0
100.0,39.594,-85.648,129.19,-27.875,-19.557,20.418,20.418,40.697,6.8578,22.247,-67.658,-46.947,50.072,50.072,-0.00047811,-0.0024589,0.0019125,0.0036542,0.0,-0.0017417,-0.0017417,0.00081962,-0.00037566,0.00078547,-0.0023223,-0.00061472,0.0010245,0.0010245,0.8,0,100,0
100.0,39.594,-85.648,129.19,-27.875,-19.557,20.418,20.418,40.697,6.8578,22.247,-67.659,-46.947,50.072,50.072,-0.00040981,-0.0021857,0.0021857,0.0034151,0.00027321,-0.0016051,-0.0016051,0.00054642,0.00011099,0.00078547,-0.0030053,-0.00054642,0.00068302,0.00068302,0.8,0,100,0
100.0,39.594,-85.649,129.19,-27.874,-19.557,20.418,20.418,40.697,6.8578,22.248,-67.659,-46.947,50.072,50.072,-0.00047811,-0.0023223,0.0019125,0.0035517,0.00010245,-0.0017075,-0.0017075,0.00075132,-0.00034151,0.00037566,-0.0025955,-0.00040981,0.00088792,0.00088792,0.8,0,100,0
100.0,39.594,-85.649,129.19,-27.874,-19.557,20.417,20.417,40.697,6.8578,22.248,-67.659,-46.947,50.072,50.072,-0.00047811,-0.0023223,0.0019125,0.0036542,0.00010245,-0.0015026,-0.0015026,0.00027321,1.7075e-05,0.00071717,-0.0027321,-0.00068302,0.00081962,0.00081962,0.8,0,100,0
100.0,39.594,-85.649,129.19,-27.874,-19.557,20.417,20.417,40.697,6.8578,22.248,-67.659,-46.947,50.072,50.072,-0.00040981,-0.0023223,0.0021857,0.0035175,6.8302e-05,-0.0018783,-0.0018783,0.00047811,-0.0001366,0.00081962,-0.0021857,-0.00047811,0.0010928,0.0010928,0.8,0,100,0
100.0,39.594,-85.649,129.19,-27.874,-19.557,20.417,20.417,40.697,6.8578,22.248,-67.659,-46.947,50.072,50.072,-0.00047811,-0.0024589,0.0016392,0.00362,0.00010245,-0.0015026,-0.0015026,0.00088792,0.00010245,0.00061472,-0.0028687,-0.00047811,0.00075132,0.00075132,0.8,0,100,0
100.0,39.594,-85.649,129.19,-27.874,-19.557,20.417,20.417,40.697,6.8578,22.248,-67.659,-46.947,50.072,50.072,-0.00040981,-0.0021857,0.0021857,0.0035858,0.00010245,-0.0016392,-0.0016392,0.00027321,4.2689e-05,0.00081962,-0.0023223,-0.00054642,0.0010928,0.0010928,0.8,0,100,0
100.0,39.594,-85.649,129.19,-27.873,-19.557,20.417,20.417,40.697,6.8578,22.248,-67.659,-46.947,50.073,50.073,-0.00040981,-0.0021857,0.0021857,0.0034151,0.00023906,-0.0016734,-0.0016734,0.00081962,-0.00023906,0.00054642,-0.0025955,-0.00047811,0.00081962,0.00081962,0.8,0,100,0
100.0,39.594,-85.649,129.19,-27.873,-19.557,20.417,20.417,40.697,6.8578,22.248,-67.659,-46.947,50.073,50.073,-0.00047811,-0.0023223,0.0019125,0.00362,0.00010245,-0.0015709,-0.0015709,0.00034151,2.5613e-05,0.00064887,-0.0028687,-0.00061472,0.00075132,0.00075132,0.8,0,100,0
100.0,39.594,-85.649,129.19,-27.873,-19.557,20.417,20.417,40.697,6.8578,22.248,-67.66,-46.947,50.073,50.073,-0.00040981,-0.0023223,0.0019125,0.0035858,0.0001366,-0.0015709,-0.0015709,0.00081962,0.00018783,0.00051226,-0.0025955,-0.00027321,0.00095623,0.00095623,0.8,0,100,0
100.0,39.594,-85.649,129.19,-27.873,-19.557,20.417,20.417,40.698,6.8578,22.248,-67.66,-46.947,50.073,50.073,-0.00040981,-0.0023223,0.0019125,0.0034492,0.0001366,-0.00181,-0.00181,0.00034151,-0.00036712,0.00078547,-0.0025955,-0.00068302,0.00075132,0.00075132,0.8,0,100,0
100.0,39.594,-85.65,129.19,-27.873,-19.557,20.417,20.417,40.698,6.8577,22.248,-67.66,-46.947,50.073,50.073,-0.00040981,-0.0021857,0.0024589,0.0034492,0.00017075,-0.0017075,-0.0017075,0.00095623,-0.00015368,0.00085377,-0.0021857,-0.00047811,0.0010245,0.0010245,0.8,0,100,0
100.0,39.594,-85.65,129.19,-27.873,-19.557,20.417,20.417,40.698,6.8578,22.248,-67.66,-46.947,50.073,50.073,-0.00047811,-0.0023223,0.0016392,0.00362,0.0001366,-0.0014685,-0.0014685,0.00054642,0.00024759,0.00047811,-0.0030053,-0.00040981,0.00075132,0.00075132,0.8,0,100,0
100.0,39.594,-85.65,129.19,-27.872,-19.557,20.417,20.417,40.698,6.8578,22.248,-67.66,-46.947,50.073,50.073,-0.00047811,-0.0023223,0.0019125,0.0036542,3.4151e-05,-0.0016051,-0.0016051,0.00027321,-9.3915e-05,0.00068302,-0.0024589,-0.00061472,0.00095623,0.00095623,0.8,0,100,0
100.0,39.594,-85.65,129.19,-27.872,-19.557,20.417,20.417,40.698,6.8577,22.248,-67.66,-46.947,50.073,50.073,-0.00040981,-0.0021857,0.0021857,0.0035175,0.00017075,-0.0015709,-0.0015709,0.00075132,-0.00051226,0.00064887,-0.0025955,-0.00075132,0.00075132,0.00075132,0.8,0,100,0
100.0,39.594,-85.65,129.19,-27.872,-19.557,20.416,20.416,40.698,6.8577,22.248,-67.66,-46.947,50.073,50.073,-0.00040981,-0.0023223,0.0016392,0.0034151,0.00017075,-0.0017417,-0.0017417,0.00027321,0.00029028,0.00068302,-0.0028687,-0.00027321,0.00075132,0.00075132,0.8,0,100,0
100.0,39.594,-85.65,129.19,-27.872,-19.557,20.416,20.416,40.698,6.8577,22.248,-67.66,-46.947,50.073,50.073,-0.00047811,-0.0023223,0.0019125,0.0035517,0.00010245,-0.0016734,-0.0016734,0.00081962,-0.00036712,0.00081962,-0.0023223,-0.00068302,0.00095623,0.00095623,0.8,0,100,0
100.0,39.594,-85.65,129.19,-27.872,-19.557,20.416,20.416,40.698,6.8577,22.248,-67.661,-46.947,50.073,50.073,-0.00040981,-0.0020491,0.0024589,0.0034151,0.00030736,-0.0014343,-0.0014343,0.00027321,0.00011099,0.00051226,-0.0031419,-0.00061472,0.00061472,0.00061472,0.8,0,100,0
100.0,39.594,-85.65,129.19,-27.872,-19.557,20.416,20.416,40.698,6.8577,22.248,-67.661,-46.947,50.073,50.073,-0.00047811,-0.0023223,0.0019125,0.0035517,6.8302e-05,-0.0016392,-0.0016392,0.00054642,9.3915e-05,0.00061472,-0.0024589,-0.00040981,0.00095623,0.00095623,0.8,0,100,0
100.0,39.594,-85.65,129.19,-27.871,-19.557,20.416,20.416,40.698,6.8577,22.248,-67.661,-46.947,50.073,50.073,-0.00040981,-0.0023223,0.0019125,0.0034151,0.00017075,-0.0017075,-0.0017075,0.00047811,-0.0001366,0.00061472,-0.0027321,-0.00047811,0.00075132,0.00075132,0.8,0,100,0
100.0,39.594,-85.651,129.19,-27.871,-19.557,20.416,20.416,40.698,6.8577,22.248,-67.661,-46.947,50.073,50.073,-0.00040981,-0.0021857,0.0021857,0.0035175,0.00010245,-0.0017075,-0.0017075,0.00081962,-0.00018783,0.0012294,-0.0020491,-0.00075132,0.00095623,0.00095623,0.8,0,100,0
100.0,39.594,-85.651,129.19,-27.871,-19.557,20.416,20.416,40.698,6.8577,22.248,-67.661,-46.947,50.073,50.073,-0.00047811,-0.0023223,0.0016392,0.00362,6.8302e-05,-0.0016051,-0.0016051,0.00061472,-0.00011099,0.00044396,-0.0025955,-0.00047811,0.00088792,0.00088792,0.8,0,100,0
100.0,39.594,-85.651,129.19,-27.871,-19.557,20.416,20.416,40.698,6.8577,22.248,-67.661,-46.947,50.073,50.073,-0.00040981,-0.0021857,0.0019125,0.0034492,0.00017075,-0.0016392,-0.0016392,0.00054642,0.00018783,0.00054642,-0.0025955,-0.00027321,0.00095623,0.00095623,0.8,0,100,0
100.0,39.594,-85.651,129.19,-27.871,-19.557,20.416,20.416,40.698,6.8577,22.248,-67.661,-46.947,50.073,50.073,-0.00040981,-0.0023223,0.0019125,0.0033468,0.00020491,-0.0017417,-0.0017417,0.00027321,-0.00041835,0.00075132,-0.0028687,-0.00075132,0.00061472,0.00061472,0.8,0,100,0
100.0,39.594,-85.651,129.19,-27.87,-19.557,20.416,20.416,40.698,6.8577,22.248,-67.661,-46.947,50.073,50.073,-0.00047811,-0.0021857,0.0019125,0.0036542,6.8302e-05,-0.0015026,-0.0015026,0.00054642,0.00014514,0.00058057,-0.0023223,-0.00040981,0.0010928,0.0010928,0.8,0,100,0
100.0,39.594,-85.651,129.19,-27.87,-19.557,20.416,20.416,40.698,6.8577,22.248,-67.662,-46.947,50.073,50.073,-0.00040981,-0.0020491,0.0021857,0.0034151,0.00020491,-0.0015709,-0.0015709,0.00075132,-4.2689e-05,0.00058057,-0.0025955,-0.00040981,0.00088792,0.00088792,0.8,0,100,0
100.0,39.594,-85.651,129.19,-27.87,-19.557,20.416,20.416,40.698,6.8577,22.248,-67.662,-46.947,50.073,50.073,-0.00047811,-0.0023223,0.0019125,0.0034492,0.00017075,-0.0016051,-0.0016051,0.00061472,-0.00024759,0.00078547,-0.0025955,-0.00068302,0.00075132,0.00075132,0.8,0,100,0
100.0,39.594,-85.651,129.19,-27.87,-19.557,20.415,20.416,40.698,6.8577,22.248,-67.662,-46.947,50.073,50.073,-0.00047811,-0.0021857,0.0019125,0.0035858,0.00010245,-0.0015026,-0.0015026,0.00040981,-0.00014514,0.00071717,-0.0024589,-0.00068302,0.00088792,0.00088792,0.8,0,100,0
100.0,39.594,-85.651,129.19,-27.87,-19.557,20.415,20.415,40.698,6.8577,22.248,-67.662,-46.947,50.073,50.073,-0.00040981,-0.0021857,0.0019125,0.0033126,0.00023906,-0.0016392,-0.0016392,0.00068302,0.00018783,0.00081962,-0.0027321,-0.00040981,0.00068302,0.00068302,0.8,0,100,0
100.0,39.594,-85.652,129.19,-27.87,-19.557,20.415,20.415,40.698,6.8577,22.248,-67.662,-46.947,50.073,50.073,-0.00047811,-0.0023223,0.0019125,0.0036542,6.8302e-05,-0.0014002,-0.0014002,0.00027321,-0.00010245,0.00020491,-0.0027321,-0.00054642,0.00095623,0.00095623,0.8,0,100,0
100.0,39.594,-85.652,129.19,-27.869,-19.557,20.415,20.415,40.698,6.8577,22.248,-67.662,-46.947,50.073,50.073,-0.00040981,-0.0021857,0.0019125,0.0032785,0.00027321,-0.0016734,-0.0016734,0.00047811,0.0001366,0.00081962,-0.0027321,-0.00040981,0.00075132,0.00075132,0.8,0,100,0
100.0,39.594,-85.652,129.19,-27.869,-19.557,20.415,20.415,40.698,6.8577,22.248,-67.662,-46.947,50.074,50.074,-0.00047811,-0.0023223,0.0019125,0.0035858,3.4151e-05,-0.0016392,-0.0016392,0.00088792,-0.00048665,0.00075132,-0.0020491,-0.00068302,0.0010245,0.0010245,0.8,0,100,0
100.0,39.594,-85.652,129.19,-27.869,-19.557,20.415,20.415,40.698,6.8577,22.249,-67.663,-46.947,50.074,50.074,-0.00040981,-0.0021857,0.0019125,0.0034151,0.00020491,-0.0015709,-0.0015709,0.00054642,0.00017929,0.00061472,-0.0027321,-0.00040981,0.00075132,0.00075132,0.8,0,100,0
100.0,39.594,-85.652,129.19,-27.869,-19.557,20.415,20.415,40.698,6.8577,22.249,-67.663,-46.948,50.074,50.074,-0.00040981,-0.0021857,0.0019125,0.0032785,0.00023906,-0.0017417,-0.0017417,0.00027321,-0.00027321,0.00088792,-0.0025955,-0.00068302,0.00068302,0.00068302,0.8,0,100,0
100.0,39.593,-85.652,129.19,-27.869,-19.557,20.415,20.415,40.698,6.8577,22.249,-67.663,-46.948,50.074,50.074,-0.00040981,-0.0021857,0.0021857,0.0034834,0.0001366,-0.0015368,-0.0015368,0.00088792,9.3915e-05,0.00051226,-0.0024589,-0.00027321,0.0010245,0.0010245,0.8,0,100,0
100.0,39.593,-85.652,129.19,-27.869,-19.557,20.415,20.415,40.698,6.8577,22.249,-67.663,-46.948,50.074,50.074,-0.00040981,-0.0021857,0.0019125,0.0033809,0.00017075,-0.0017075,-0.0017075,0.00054642,-0.00041835,0.0010245,-0.0024589,-0.00081962,0.00075132,0.00075132,0.8,0,100,0
100.0,39.593,-85.652,129.19,-27.868,-19.557,20.415,20.415,40.698,6.8577,22.249,-67.663,-46.948,50.074,50.074,-0.00047811,-0.0023223,0.0016392,0.00362,6.8302e-05,-0.0014002,-0.0014002,0.00027321,0.00026467,0.00030736,-0.0028687,-0.00040981,0.00088792,0.00088792,0.8,0,100,0
100.0,39.593,-85.652,129.19,-27.868,-19.557,20.415,20.415,40.698,6.8577,22.249,-67.663,-46.948,50.074,50.074,-0.00040981,-0.0023223,0.0019125,0.0033126,0.00017075,-0.00181,-0.00181,0.00054642,-0.00021344,0.00078547,-0.0024589,-0.00047811,0.00081962,0.00081962,0.0,0,100,0
100.0,39.593,-85.653,129.19,-27.868,-19.557,20.415,20.415,40.698,6.8577,22.249,-67.663,-46.948,50.074,50.074,-0.00047811,-0.0020491,0.0021857,0.0034492,0.00023906,-0.0013319,-0.0013319,0.00068302,0.00012807,0.00034151,-0.0028687,-0.00040981,0.00081962,0.00081962,0.0,0,100,0
100.0,39.593,-85.653,129.19,-27.868,-19.557,20.415,20.415,40.698,6.8576,22.249,-67.663,-46.948,50.074,50.074,-0.00047811,-0.0021857,0.0019125,0.0034151,0.0001366,-0.0017417,-0.0017417,0.00068302,-0.0003159,0.00095623,-0.0021857,-0.00061472,0.00088792,0.00088792,0.0,0,100,0
100.0,39.593,-85.653,129.19,-27.868,-19.557,20.414,20.414,40.698,6.8576,22.249,-67.664,-46.948,50.074,50.074,-0.00047811,-0.0021857,0.0019125,0.0034834,0.0001366,-0.0015368,-0.0015368,0.00040981,-8.5377e-05,0.00054642,-0.0025955,-0.00054642,0.00081962,0.00081962,0.0,0,100,0
100.0,39.593,-85.653,129.19,-27.868,-19.557,20.414,20.414,40.698,6.8576,22.249,-67.664,-46.948,50.074,50.074,-0.00047811,-0.0021857,0.0019125,0.0034492,0.00010245,-0.0016392,-0.0016392,0.00061472,-0.00023052,0.00068302,-0.0024589,-0.00054642,0.00088792,0.00088792,0.0,0,100,0
100.0,39.593,-85.653,129.19,-27.867,-19.557,20.414,20.414,40.698,6.8576,22.249,-67.664,-46.948,50.074,50.074,-0.00047811,-0.0021857,0.0019125,0.00362,3.4151e-05,-0.0015026,-0.0015026,0.00088792,0.00011953,0.00064887,-0.0021857,-0.00034151,0.0010928,0.0010928,0.0,0,100,0
100.0,39.593,-85.653,129.19,-27.867,-19.557,20.414,20.414,40.698,6.8576,22.249,-67.664,-46.948,50.074,50.074,-0.00040981,-0.0021857,0.0019125,0.0032785,0.00030736,-0.0015026,-0.0015026,0.0001366,4.2689e-05,0.00099038,-0.0030053,-0.00081962,0.00047811,0.00047811,0.0,0,100,0
100.0,39.593,-85.653,129.19,-27.867,-19.557,20.414,20.414,40.698,6.8577,22.249,-67.664,-46.948,50.074,50.074,-0.00047811,-0.0021857,0.0019125,0.0034151,0.0001366,-0.0016392,-0.0016392,0.00061472,0.00019637,0.00027321,-0.0025955,-6.8302e-05,0.0010245,0.0010245,0.0,0,100,0
100.0,39.593,-85.653,129.19,-27.867,-19.557,20.414,20.414,40.698,6.8576,22.249,-67.664,-46.948,50.074,50.074,-0.00047811,-0.0023223,0.0016392,0.0035175,0.00010245,-0.0014685,-0.0014685,0.00047811,-9.3915e-05,0.00058057,-0.0027321,-0.00061472,0.00075132,0.00075132,0.0,0,100,0
100.0,39.593,-85.653,129.19,-27.867,-19.557,20.414,20.414,40.699,6.8576,22.249,-67.664,-46.948,50.074,50.074,-0.00040981,-0.0020491,0.0021857,0.0032102,0.00023906,-0.00181,-0.00181,0.00047811,-0.00029882,0.00092208,-0.0021857,-0.00054642,0.00088792,0.00088792,0.0,0,100,0
100.0,39.593,-85.654,129.19,-27.867,-19.557,20.414,20.414,40.699,6.8576,22.249,-67.664,-46.948,50.074,50.074,-0.00047811,-0.0021857,0.0016392,0.0034151,0.0001366,-0.0015368,-0.0015368,0.00061472,-0.00036712,0.00095623,-0.0024589,-0.00081962,0.00068302,0.00068302,0.0,0,100,0
100.0,39.593,-85.654,129.19,-27.866,-19.557,20.414,20.414,40.699,6.8576,22.249,-67.665,-46.948,50.074,50.074,-0.00040981,-0.0020491,0.0021857,0.0032785,0.00023906,-0.0016392,-0.0016392,0.00061472,9.3915e-05,0.00044396,-0.0025955,-0.00020491,0.00088792,0.00088792,0.0,0,100,0
100.0,39.593,-85.654,129.19,-27.866,-19.557,20.414,20.414,40.699,6.8576,22.249,-67.665,-46.948,50.074,50.074,-0.00047811,-0.0021857,0.0016392,0.0035175,0.00010245,-0.0015026,-0.0015026,0.0001366,-6.8302e-05,0.00051226,-0.0025955,-0.00061472,0.00088792,0.00088792,0.0,3,100,50
100.0,39.593,-85.654,129.19,-27.866,-19.557,20.414,20.414,40.699,6.8576,22.249,-67.665,-46.948,50.074,50.074,-0.00040981,-0.0020491,0.0021857,0.0033468,0.00023906,-0.0014002,-0.0014002,0.0010245,0.00012807,0.00064887,-0.0025955,-0.00040981,0.00081962,0.00081962,0.0,3,100,50
100.0,39.748,-85.61,129.69,-27.524,-19.49,20.487,20.487,40.799,6.99,21.652,-67.369,-46.782,50.137,50.137,3.0975,0.87235,9.9229,6.8315,1.3401,1.4683,1.4683,2.0096,2.648,-11.942,5.9219,3.3147,1.263,1.263,0.0,1,100,50
100.0,39.86,-85.519,130.18,-27.075,-19.438,20.378,20.378,40.863,6.7854,21.205,-66.831,-46.748,49.995,49.995,2.2469,1.8234,9.8592,8.9924,1.0398,-2.1806,-2.1806,1.2837,-4.0921,-8.9456,10.76,0.67851,-2.8495,-2.8495,0.0,1,100,50
100.0,39.95,-85.399,130.67,-26.557,-19.422,20.227,20.227,40.904,6.5826,20.718,-66.252,-46.726,49.799,49.799,1.8021,2.4072,9.8508,10.364,0.3134,-3.0282,-3.0282,0.82154,-4.057,-9.7362,11.577,0.44383,-3.9285,-3.9285,0.0,1,100,50
100.0,40.03,-85.261,131.18,-26.007,-19.433,20.053,20.053,40.944,6.4063,20.201,-65.664,-46.723,49.582,49.582,1.5925,2.7591,10.013,10.996,-0.22137,-3.4719,-3.4719,0.79497,-3.5252,-10.341,11.755,0.067824,-4.3323,-4.3323,0.0,1,100,50
100.0,40.108,-85.115,131.68,-25.441,-19.463,19.864,19.864,40.985,6.2531,19.66,-65.077,-46.74,49.359,49.359,1.5521,2.9188,10.192,11.325,-0.59037,-3.7753,-3.7753,0.81894,-3.065,-10.821,11.744,-0.34014,-4.4664,-4.4664,0.0,1,100,50
100.0,40.185,-84.968,132.2,-24.864,-19.504,19.666,19.666,41.028,6.1216,19.1,-64.494,-46.774,49.133,49.133,1.5405,2.9422,10.371,11.532,-0.82823,-3.9751,-3.9751,0.85391,-2.6286,-11.205,11.65,-0.6863,-4.504,-4.504,0.0,1,100,50
100.0,40.261,-84.824,132.73,-24.281,-19.554,19.46,19.46,41.072,6.0089,18.523,-63.918,-46.823,48.909,48.909,1.5331,2.8698,10.555,11.663,-0.99154,-4.1095,-4.1095,0.87563,-2.2542,-11.537,11.522,-0.9789,-4.4792,-4.4792,0.0,1,100,50
100.0,40.337,-84.688,133.27,-23.693,-19.609,19.25,19.25,41.116,5.913,17.931,-63.35,-46.884,48.688,48.688,1.5173,2.728,10.745,11.747,-1.1061,-4.1965,-4.1965,0.88683,-1.9183,-11.83,11.376,-1.2219,-4.4229,-4.4229,0.0,1,100,50
100.0,40.41,-84.562,133.81,-23.103,-19.668,19.038,19.038,41.16,5.8332,17.327,-62.789,-46.955,48.47,48.47,1.4638,2.5257,10.932,11.806,-1.1811,-4.2445,-4.2445,0.88731,-1.595,-12.092,11.221,-1.4154,-4.3585,-4.3585,0.0,1,100,50
100.0,40.481,-84.447,134.37,-22.511,-19.73,18.825,18.825,41.204,5.7677,16.71,-62.235,-47.034,48.257,48.257,1.4093,2.2817,11.128,11.84,-1.2339,-4.2696,-4.2696,0.87754,-1.3119,-12.339,11.069,-1.5824,-4.2782,-4.2782,0.0,1,100,50
100.0,40.549,-84.347,134.94,-21.919,-19.794,18.611,18.611,41.248,5.7151,16.081,-61.689,-47.121,48.047,48.047,1.3704,2.015,11.332,11.849,-1.2789,-4.2757,-4.2757,0.86812,-1.0517,-12.569,10.914,-1.732,-4.185,-4.185,0.0,1,100,50
100.0,40.617,-84.259,135.52,-21.327,-19.86,18.397,18.397,41.291,5.6746,15.442,-61.152,-47.214,47.843,47.843,1.362,1.7499,11.548,11.832,-1.3296,-4.267,-4.267,0.87215,-0.81017,-12.78,10.755,-1.8715,-4.0795,-4.0795,0.0,1,100,50
100.0,40.689,-84.183,136.1,-20.738,-19.931,18.185,18.185,41.337,5.6448,14.794,-60.622,-47.315,47.646,47.646,1.4265,1.5327,11.793,11.775,-1.4159,-4.2487,-4.2487,0.90821,-0.59608,-12.974,10.587,-2.0203,-3.9489,-3.9489,0.0,1,100,50
100.0,40.763,-84.116,136.71,-20.153,-20.007,17.974,17.974,41.383,5.6266,14.135,-60.102,-47.422,47.454,47.454,1.4796,1.324,12.019,11.713,-1.52,-4.2209,-4.2209,0.93533,-0.363,-13.162,10.41,-2.1419,-3.8296,-3.8296,0.0,1,100,50
100.0,40.837,-84.062,137.32,-19.57,-20.088,17.765,17.765,41.43,5.6207,13.468,-59.59,-47.534,47.268,47.268,1.4888,1.0958,12.222,11.658,-1.6149,-4.1847,-4.1847,0.94263,-0.11879,-13.35,10.239,-2.2366,-3.7318,-3.7318,0.0,1,100,50
100.0,40.911,-84.018,137.94,-18.99,-20.173,17.558,17.558,41.478,5.6265,12.791,-59.086,-47.65,47.086,47.086,1.4834,0.86347,12.43,11.601,-1.7007,-4.1427,-4.1427,0.94803,0.1168,-13.537,10.081,-2.3215,-3.6391,-3.6391,0.0,1,100,50
100.0,40.946,-83.949,138.49,-18.421,-20.265,17.303,17.303,41.503,5.5098,12.243,-58.558,-47.806,46.849,46.85,0.69005,1.3945,11.083,11.382,-1.8349,-5.0914,-5.0914,0.50748,-2.3336,-10.962,10.552,-3.1233,-4.7262,-4.7262,0.0,1,100,50
100.0,40.924,-83.804,138.95,-17.849,-20.36,16.998,16.998,41.49,5.2274,11.857,-57.997,-47.98,46.549,46.549,-0.43269,2.8878,9.0795,11.428,-1.9039,-6.1005,-6.1005,-0.26733,-5.649,-7.7236,11.23,-3.4716,-6.0004,-6.0004,0.0,1,100,50
100.0,40.885,-83.593,139.37,-17.257,-20.448,16.704,16.704,41.452,4.9139,11.487,-57.434,-48.106,46.257,46.257,-0.78971,4.2272,8.447,11.85,-1.7595,-5.8732,-5.8732,-0.75228,-6.2693,-7.3976,11.249,-2.5268,-5.8587,-5.8587,0.0,1,100,50
100.0,40.837,-83.337,139.77,-16.653,-20.525,16.421,16.421,41.398,4.5835,11.126,-56.876,-48.203,45.975,45.975,-0.95882,5.128,7.9902,12.069,-1.5408,-5.6656,-5.6656,-1.077,-6.6075,-7.2107,11.172,-1.9257,-5.6214,-5.6214,0.0,1,100,50
100.0,40.783,-83.05,140.15,-16.043,-20.591,16.146,16.146,41.333,4.245,10.77,-56.321,-48.279,45.706,45.706,-1.0704,5.7288,7.684,12.2,-1.3194,-5.4934,-5.4934,-1.3066,-6.7705,-7.1325,11.088,-1.5387,-5.3824,-5.3824,0.0,1,100,50
100.0,40.725,-82.744,140.53,-15.429,-20.647,15.878,15.878,41.259,3.9026,10.415,-55.77,-48.345,45.447,45.447,-1.1697,6.1252,7.4747,12.286,-1.1267,-5.3664,-5.3664,-1.4796,-6.8494,-7.1002,11.023,-1.3042,-5.1834,-5.1834,0.0,1,100,50
100.0,40.661,-82.425,140.89,-14.812,-20.696,15.614,15.614,41.178,3.5582,10.06,-55.221,-48.403,45.196,45.196,-1.2691,6.385,7.3274,12.348,-0.976,-5.2832,-5.2832,-1.6209,-6.8864,-7.0859,10.981,-1.1747,-5.0333,-5.0333,0.0,1,100,50
100.0,40.594,-82.098,141.26,-14.191,-20.739,15.354,15.354,41.092,3.2177,9.7007,-54.673,-48.457,44.952,44.952,-1.3404,6.5318,7.2979,12.416,-0.85948,-5.1929,-5.1929,-1.7272,-6.8103,-7.194,10.952,-1.079,-4.88,-4.88,0.0,1,100,50
100.0,40.524,-81.769,141.62,-13.567,-20.778,15.098,15.098,41.001,2.8835,9.3335,-54.127,-48.509,44.714,44.714,-1.3986,6.5835,7.3315,12.475,-0.78031,-5.1204,-5.1204,-1.8089,-6.6845,-7.3431,10.932,-1.0385,-4.7494,-4.7494,0.0,1,100,50
100.0,40.452,-81.441,141.99,-12.941,-20.815,14.845,14.845,40.908,2.5573,8.9575,-53.581,-48.561,44.482,44.482,-1.4483,6.5626,7.414,12.523,-0.73575,-5.0614,-5.0614,-1.8728,-6.5228,-7.5209,10.917,-1.0387,-4.638,-4.638,0.0,1,100,50
100.0,40.378,-81.116,142.37,-12.313,-20.851,14.595,14.595,40.811,2.2406,8.5715,-53.036,-48.615,44.255,44.255,-1.4903,6.4864,7.5345,12.565,-0.7197,-5.0112,-5.0112,-1.9234,-6.3359,-7.7194,10.905,-1.0666,-4.5415,-4.5415,0.0,1,100,50
100.0,40.301,-80.798,142.76,-11.683,-20.887,14.346,14.346,40.713,1.9342,8.1749,-52.491,-48.67,44.032,44.032,-1.5258,6.3668,7.6842,12.601,-0.73001,-4.9681,-4.9681,-1.9633,-6.128,-7.933,10.894,-1.1163,-4.4574,-4.4574,0.0,1,100,50
100.0,40.223,-80.487,143.15,-11.051,-20.925,14.1,14.1,40.613,1.6389,7.767,-51.947,-48.729,43.813,43.813,-1.5561,6.2148,7.8577,12.629,-0.76051,-4.929,-4.929,-1.9956,-5.905,-8.1583,10.882,-1.1798,-4.3814,-4.3814,0.0,1,100,50
100.0,40.144,-80.186,143.55,-10.418,-20.966,13.855,13.855,40.512,1.3553,7.3475,-51.404,-48.792,43.598,43.598,-1.5826,6.0365,8.0487,12.652,-0.80723,-4.8921,-4.8921,-2.0221,-5.6719,-8.3898,10.868,-1.2546,-4.3124,-4.3124,0.0,1,100,50
100.0,40.064,-79.894,143.96,-9.785,-21.009,13.612,13.612,40.41,1.0837,6.9161,-50.861,-48.859,43.385,43.385,-1.6054,5.8383,8.2539,12.669,-0.86709,-4.8564,-4.8564,-2.0434,-5.4313,-8.6274,10.852,-1.3358,-4.2475,-4.2475,0.0,1,100,50
100.0,39.983,-79.612,144.39,-9.151,-21.056,13.371,13.371,40.307,0.82449,6.4727,-50.319,-48.93,43.176,43.176,-1.6255,5.6251,8.4692,12.681,-0.93717,-4.8204,-4.8204,-2.0611,-5.1852,-8.8675,10.833,-1.4226,-4.186,-4.186,0.0,1,100,50
100.0,39.901,-79.342,144.82,-8.5167,-21.107,13.132,13.132,40.203,0.57766,6.0173,-49.779,-49.006,42.97,42.97,-1.6442,5.4001,8.6918,12.686,-1.0131,-4.7822,-4.7822,-2.0763,-4.9365,-9.1089,10.81,-1.5102,-4.1248,-4.1248,0.0,1,100,50
100.0,39.817,-79.084,145.27,-7.8823,-21.161,12.895,12.895,40.099,0.3435,5.5496,-49.24,-49.086,42.766,42.766,-1.661,5.1655,8.9213,12.688,-1.0978,-4.7448,-4.7448,-2.0891,-4.6832,-9.3528,10.786,-1.6021,-4.0669,-4.0669,0.0,1,100,50
100.0,39.734,-78.838,145.73,-7.2481,-21.221,12.66,12.66,39.994,0.12207,5.0697,-48.702,-49.17,42.566,42.566,-1.6761,4.9243,9.1555,12.684,-1.187,-4.7057,-4.7057,-2.0999,-4.4286,-9.5985,10.757,-1.6946,-4.0095,-4.0095,0.0,1,100,50
100.0,39.649,-78.604,146.2,-6.6143,-21.285,12.426,12.426,39.888,-0.086613,4.5776,-48.165,-49.26,42.368,42.368,-1.6908,4.6777,9.3934,12.676,-1.2793,-4.665,-4.665,-2.1098,-4.1737,-9.8427,10.727,-1.7888,-3.9517,-3.9517,0.0,1,100,50
100.0,39.564,-78.383,146.68,-5.9812,-21.353,12.195,12.195,39.782,-0.28248,4.0732,-47.631,-49.354,42.174,42.174,-1.7049,4.4271,9.6336,12.663,-1.3738,-4.622,-4.622,-2.1179,-3.9174,-10.088,10.694,-1.8816,-3.894,-3.894,0.0,1,100,50
100.0,39.478,-78.174,147.17,-5.3489,-21.427,11.966,11.966,39.676,-0.46561,3.5566,-47.098,-49.453,41.982,41.982,-1.7185,4.1741,9.874,12.646,-1.4692,-4.5765,-4.5765,-2.1258,-3.6626,-10.332,10.657,-1.974,-3.8353,-3.8353,0.0,1,100,50
100.0,39.391,-77.978,147.68,-4.7176,-21.505,11.74,11.74,39.57,-0.63592,3.0278,-46.567,-49.556,41.793,41.793,-1.7317,3.9189,10.117,12.625,-1.5658,-4.5299,-4.5299,-2.133,-3.4062,-10.576,10.62,-2.066,-3.7763,-3.7763,0.0,1,100,50
100.0,39.304,-77.795,148.19,-4.0877,-21.588,11.516,11.516,39.463,-0.79348,2.4868,-46.038,-49.664,41.607,41.607,-1.7451,3.6625,10.36,12.6,-1.6634,-4.4809,-4.4809,-2.1395,-3.1511,-10.82,10.579,-2.1576,-3.7166,-3.7166,0.0,1,100,50
100.0,39.216,-77.625,148.72,-3.4591,-21.676,11.294,11.294,39.355,-0.93831,1.9336,-45.511,-49.776,41.424,41.424,-1.758,3.4051,10.605,12.572,-1.7612,-4.4304,-4.4304,-2.146,-2.8966,-11.064,10.538,-2.2488,-3.6567,-3.6567,0.0,1,100,50
100.0,39.128,-77.467,149.27,-2.832,-21.769,11.075,11.076,39.248,-1.0704,1.3682,-44.986,-49.893,41.244,41.244,-1.7711,3.1478,10.849,12.54,-1.8595,-4.378,-4.378,-2.1519,-2.6425,-11.308,10.494,-2.3389,-3.5958,-3.5958,0.0,1,100,50
100.0,39.038,-77.323,149.82,-2.2067,-21.867,10.859,10.859,39.14,-1.1898,0.79062,-44.464,-50.015,41.068,41.068,-1.7839,2.8894,11.094,12.506,-1.9583,-4.3242,-4.3242,-2.1573,-2.3883,-11.552,10.448,-2.4297,-3.5346,-3.5346,0.0,1,100,50
100.0,38.949,-77.191,150.39,-1.5833,-21.97,10.646,10.646,39.032,-1.2966,0.20078,-43.944,-50.141,40.894,40.894,-1.7972,2.6315,11.339,12.468,-2.0558,-4.2686,-4.2686,-2.1635,-2.135,-11.797,10.402,-2.5188,-3.4725,-3.4725,0.0,1,100,50
100.0,38.858,-77.072,150.97,-0.96195,-22.078,10.435,10.435,38.923,-1.3907,-0.40125,-43.426,-50.271,40.724,40.724,-1.8105,2.3739,11.585,12.428,-2.1527,-4.2112,-4.2112,-2.1691,-1.883,-12.041,10.353,-2.6072,-3.4097,-3.4097,0.0,1,100,50
100.0,38.767,-76.967,151.56,-0.34271,-22.19,10.228,10.228,38.814,-1.4723,-1.0155,-42.911,-50.406,40.556,40.556,-1.8238,2.1164,11.83,12.385,-2.2495,-4.1518,-4.1518,-2.1739,-1.6305,-12.285,10.304,-2.6946,-3.3456,-3.3456,0.0,1,100,50
100.0,38.675,-76.874,152.16,0.27426,-22.307,10.023,10.023,38.705,-1.5412,-1.6421,-42.398,-50.545,40.392,40.392,-1.8369,1.8597,12.076,12.339,-2.3452,-4.0911,-4.0911,-2.1797,-1.3793,-12.531,10.254,-2.7814,-3.2814,-3.2814,0.0,1,100,50
100.0,38.582,-76.793,152.78,0.88879,-22.429,9.8218,9.8218,38.596,-1.5977,-2.2808,-41.888,-50.688,40.232,40.232,-1.8514,1.6039,12.319,12.291,-2.4383,-4.0278,-4.0278,-2.1853,-1.1302,-12.775,10.202,-2.8659,-3.2153,-3.2153,0.0,1,100,50
100.0,38.489,-76.726,153.41,1.5009,-22.556,9.6236,9.6236,38.487,-1.6418,-2.9319,-41.381,-50.836,40.074,40.074,-1.8651,1.3484,12.566,12.242,-2.5331,-3.964,-3.964,-2.1906,-0.88007,-13.022,10.151,-2.9515,-3.1503,-3.1503,0.0,1,100,50
100.0,38.395,-76.671,154.05,2.1103,-22.687,9.4286,9.4286,38.377,-1.6733,-3.5953,-40.876,-50.987,39.92,39.92,-1.879,1.0932,12.812,12.189,-2.6274,-3.8994,-3.8994,-2.1967,-0.63045,-13.269,10.099,-3.0366,-3.0841,-3.0841,0.0,1,100,50
100.0,38.301,-76.629,154.7,2.7171,-22.823,9.237,9.237,38.267,-1.6923,-4.2712,-40.373,-51.143,39.769,39.769,-1.8931,0.83888,13.06,12.135,-2.7206,-3.8327,-3.8327,-2.2025,-0.38026,-13.518,10.046,-3.1207,-3.0174,-3.0174,0.0,1,100,50
100.0,38.205,-76.6,155.37,3.3211,-22.964,9.0487,9.0487,38.156,-1.6988,-4.9596,-39.874,-51.304,39.621,39.621,-1.9073,0.58453,13.307,12.08,-2.8136,-3.7653,-3.7653,-2.2082,-0.13116,-13.768,9.9926,-3.2047,-2.9504,-2.9504,0.0,1,100,50
100.0,38.109,-76.584,156.04,3.9222,-23.109,8.8639,8.864,38.046,-1.693,-5.6605,-39.377,-51.468,39.477,39.477,-1.9222,0.33113,13.555,12.022,-2.9036,-3.6949,-3.6949,-2.2142,0.11652,-14.018,9.9391,-3.2868,-2.8818,-2.8818,0.0,1,100,50
100.0,38.012,-76.58,156.73,4.5203,-23.259,8.6827,8.6827,37.935,-1.6748,-6.3741,-38.882,-51.637,39.337,39.337,-1.9365,0.078137,13.805,11.963,-2.9959,-3.6252,-3.6252,-2.2199,0.36533,-14.272,9.8858,-3.3698,-2.8141,-2.8141,0.0,1,100,50
100.0,37.915,-76.588,157.44,5.1155,-23.413,8.505,8.505,37.823,-1.644,-7.1005,-38.391,-51.809,39.199,39.199,-1.9512,-0.17499,14.057,11.903,-3.087,-3.5538,-3.5538,-2.2262,0.61488,-14.528,9.8316,-3.4523,-2.7459,-2.7459,0.0,1,100,50
100.0,37.816,-76.61,158.15,5.7076,-23.572,8.3309,8.331,37.712,-1.6008,-7.8398,-37.902,-51.986,39.065,39.065,-1.9658,-0.42784,14.31,11.841,-3.178,-3.4814,-3.4814,-2.2332,0.86404,-14.785,9.7779,-3.5348,-2.6768,-2.6768,0.0,1,100,50
100.0,37.717,-76.644,158.88,6.2965,-23.736,8.1606,8.1606,37.6,-1.5451,-8.5921,-37.416,-52.167,38.935,38.935,-1.9809,-0.68042,14.564,11.779,-3.2683,-3.4075,-3.4075,-2.2389,1.1138,-15.046,9.7237,-3.6164,-2.6074,-2.6074,0.0,1,100,50
100.0,37.618,-76.691,159.62,6.8822,-23.904,7.9939,7.9939,37.487,-1.4771,-9.3573,-36.932,-52.352,38.808,38.808,-1.9961,-0.93246,14.818,11.715,-3.3576,-3.3333,-3.3333,-2.2461,1.3611,-15.305,9.6711,-3.6992,-2.5386,-2.5386,0.0,1,100,50
100.0,37.517,-76.749,160.38,7.4647,-24.076,7.8309,7.8309,37.375,-1.3972,-10.135,-36.451,-52.541,38.685,38.685,-2.0152,-1.1793,15.065,11.649,-3.4432,-3.2598,-3.2598,-2.2557,1.5968,-15.555,9.6196,-3.781,-2.4712,-2.4712,0.0,1,100,50
100.0,37.415,-76.821,161.14,8.0439,-24.252,7.6719,7.6719,37.261,-1.305,-10.926,-35.973,-52.734,38.565,38.565,-2.0321,-1.427,15.321,11.585,-3.5287,-3.1809,-3.1809,-2.2644,1.8435,-15.817,9.5693,-3.8567,-2.3996,-2.3996,0.0,1,100,50
100.0,37.313,-76.905,161.92,8.62,-24.433,7.5168,7.5168,37.148,-1.2004,-11.73,-35.497,-52.93,38.448,38.448,-2.0491,-1.676,15.579,11.52,-3.6145,-3.1014,-3.1014,-2.2735,2.092,-16.086,9.5179,-3.9327,-2.3273,-2.3273,0.0,1,100,50
100.0,37.21,-77.001,162.71,9.1927,-24.618,7.3658,7.3658,37.034,-1.0833,-12.548,-35.023,-53.131,38.336,38.336,-2.0657,-1.9261,15.843,11.455,-3.7012,-3.0204,-3.0204,-2.2826,2.3424,-16.359,9.4675,-4.0105,-2.2549,-2.2549,0.0,1,100,50
100.0,37.105,-77.11,163.52,9.7622,-24.807,7.2188,7.2188,36.919,-0.95359,-13.38,-34.553,-53.335,38.226,38.226,-2.0825,-2.1783,16.108,11.389,-3.7879,-2.9396,-2.9396,-2.2914,2.5947,-16.635,9.4164,-4.0888,-2.1824,-2.1824,0.0,1,100,50
100.0,36.999,-77.228,164.33,10.327,-24.999,7.0742,7.0742,36.803,-0.81944,-14.216,-34.083,-53.545,38.119,38.119,-2.1357,-2.3728,16.252,11.305,-3.829,-2.892,-2.892,-2.3251,2.683,-16.727,9.3964,-4.1881,-2.147,-2.147,0.0,1,100,50
100.0,36.89,-77.357,165.15,10.89,-25.193,6.9348,6.9348,36.685,-0.67513,-15.064,-33.614,-53.755,38.016,38.016,-2.1736,-2.5687,16.47,11.258,-3.8735,-2.7884,-2.7884,-2.3582,2.8862,-16.951,9.3727,-4.2032,-2.0593,-2.0593,0.0,1,100,50
100.0,36.78,-77.496,165.99,11.451,-25.389,6.8004,6.8004,36.566,-0.51984,-15.924,-33.147,-53.966,37.917,37.918,-2.2066,-2.7799,16.705,11.209,-3.925,-2.6873,-2.6873,-2.3859,3.1059,-17.196,9.346,-4.231,-1.9724,-1.9724,0.0,1,100,50
100.0,36.668,-77.646,166.84,12.009,-25.588,6.6709,6.671,36.445,-0.35305,-16.796,-32.681,-54.18,37.823,37.823,-2.2361,-3.0026,16.951,11.156,-3.9835,-2.589,-2.589,-2.4099,3.3357,-17.455,9.315,-4.2719,-1.8875,-1.8875,0.0,1,100,50
100.0,36.555,-77.808,167.7,12.564,-25.79,6.5463,6.5464,36.324,-0.17436,-17.683,-32.217,-54.396,37.733,37.733,-2.2634,-3.2345,17.21,11.101,-4.0477,-2.4925,-2.4925,-2.4309,3.5738,-17.727,9.282,-4.3219,-1.8038,-1.8038,0.0,1,100,50
100.0,36.438,-77.978,168.56,13.115,-25.994,6.4239,6.4239,36.199,0.0062246,-18.571,-31.753,-54.617,37.644,37.644,-2.3329,-3.3976,17.314,11.024,-4.0663,-2.4487,-2.4487,-2.4831,3.6117,-17.771,9.285,-4.4144,-1.7753,-1.7752,0.0,1,100,50
100.0,36.318,-78.155,169.44,13.664,-26.197,6.3068,6.3069,36.072,0.19389,-19.468,-31.288,-54.837,37.56,37.56,-2.3928,-3.5518,17.483,10.988,-4.0747,-2.341,-2.341,-2.5378,3.7533,-17.931,9.2915,-4.4053,-1.6874,-1.6874,0.0,1,100,50
100.0,36.196,-78.342,170.32,14.212,-26.402,6.1959,6.1959,35.943,0.39128,-20.375,-30.824,-55.056,37.481,37.481,-2.4415,-3.7305,17.696,10.959,-4.094,-2.2195,-2.2195,-2.5841,3.9478,-18.155,9.2912,-4.39,-1.5847,-1.5847,0.0,1,100,50
100.0,36.072,-78.538,171.22,14.758,-26.608,6.0907,6.0907,35.812,0.59933,-21.295,-30.36,-55.276,37.406,37.406,-2.4843,-3.9302,17.928,10.922,-4.1246,-2.1041,-2.1041,-2.6226,4.1611,-18.401,9.2811,-4.3956,-1.4861,-1.4861,0.0,1,100,50
100.0,35.946,-78.746,172.13,15.302,-26.817,5.9911,5.9911,35.679,0.81873,-22.229,-29.896,-55.497,37.337,37.337,-2.5229,-4.1462,18.179,10.883,-4.1653,-1.9919,-1.9919,-2.6561,4.3879,-18.669,9.2668,-4.4164,-1.3895,-1.3895,0.0,1,100,50
100.0,35.816,-78.961,173.04,15.843,-27.025,5.8943,5.8944,35.543,1.0407,-23.166,-29.432,-55.722,37.269,37.269,-2.5962,-4.3041,18.295,10.822,-4.1746,-1.9348,-1.9348,-2.717,4.4397,-18.736,9.2835,-4.4913,-1.348,-1.348,0.0,1,100,50
100.0,35.682,-79.183,173.96,16.383,-27.234,5.8025,5.8026,35.404,1.2672,-24.108,-28.966,-55.946,37.206,37.206,-2.6719,-4.4376,18.426,10.791,-4.1643,-1.8358,-1.8358,-2.7871,4.53,-18.844,9.3129,-4.4881,-1.269,-1.269,0.0,1,100,50
100.0,35.546,-79.413,174.89,16.922,-27.442,5.7176,5.7176,35.262,1.5029,-25.061,-28.5,-56.168,37.148,37.148,-2.7326,-4.5989,18.63,10.777,-4.1605,-1.6985,-1.6985,-2.8468,4.7131,-19.059,9.3307,-4.4433,-1.1523,-1.1523,0.0,1,100,50
100.0,35.407,-79.652,175.84,17.46,-27.65,5.6392,5.6393,35.117,1.7488,-26.026,-28.033,-56.389,37.096,37.096,-2.786,-4.7882,18.86,10.757,-4.17,-1.5672,-1.5672,-2.897,4.9181,-19.302,9.3392,-4.4226,-1.039,-1.039,0.0,1,100,50
100.0,35.265,-79.902,176.79,17.996,-27.86,5.5673,5.5673,34.97,2.0058,-27.004,-27.566,-56.61,37.05,37.05,-2.8339,-4.9985,19.11,10.731,-4.1912,-1.4396,-1.4396,-2.9392,5.1401,-19.568,9.3395,-4.4205,-0.92843,-0.92843,0.0,1,100,50
0.40365,35.119,-80.16,177.76,18.531,-28.069,5.499,5.499,34.82,2.2668,-27.988,-27.098,-56.834,37.006,37.007,-2.9083,-5.1628,19.251,10.685,-4.1956,-1.3658,-1.3657,-3.0051,5.2199,-19.673,9.3644,-4.476,-0.869,-0.869,0.0,1,100,50
0.40365,34.969,-80.424,178.72,19.063,-28.278,5.4348,5.4348,34.665,2.5293,-28.974,-26.627,-57.059,36.966,36.966,-3.0002,-5.2777,19.338,10.657,-4.1714,-1.2839,-1.2839,-3.0931,5.2499,-19.717,9.4145,-4.4937,-0.80555,-0.80555,0.0,1,100,50
0.40365,34.816,-80.695,179.7,19.596,-28.485,5.3784,5.3784,34.507,2.8004,-29.97,-26.154,-57.28,36.933,36.933,-3.0732,-5.4237,19.534,10.66,-4.1431,-1.1276,-1.1276,-3.1659,5.4223,-19.921,9.4516,-4.4152,-0.67127,-0.67127,0.0,1,100,50
0.40365,34.659,-80.975,-179.31,20.129,-28.692,5.3295,5.3296,34.345,3.0813,-30.978,-25.681,-57.498,36.906,36.906,-3.1379,-5.6044,19.758,10.654,-4.1279,-0.97754,-0.97753,-3.2272,5.618,-20.154,9.4761,-4.3642,-0.53952,-0.53952,0.0,1,100,50
0.40365,34.499,-81.266,-178.31,20.661,-28.898,5.288,5.288,34.181,3.373,-31.998,-25.206,-57.714,36.885,36.885,-3.1963,-5.8099,20.006,10.641,-4.1256,-0.83033,-0.83032,-3.2797,5.8342,-20.415,9.4905,-4.3321,-0.40926,-0.40926,0.0,1,100,50
0.40365,34.336,-81.565,-177.3,21.192,-29.104,5.2515,5.2515,34.014,3.6703,-33.026,-24.73,-57.932,36.869,36.869,-3.2717,-5.9858,20.176,10.612,-4.1198,-0.73116,-0.73116,-3.3495,5.9462,-20.558,9.5208,-4.3585,-0.32464,-0.32464,0.0,1,100,50
0.40365,34.166,-81.869,-176.29,21.721,-29.308,5.2173,5.2173,33.841,3.9645,-34.051,-24.25,-58.153,36.854,36.854,-3.385,-6.0705,20.191,10.581,-4.0819,-0.68272,-0.68272,-3.4612,5.8835,-20.499,9.5971,-4.4144,-0.29042,-0.29042,0.0,1,100,50
0.40341,33.993,-82.178,-175.28,22.251,-29.509,5.1922,5.1923,33.663,4.2662,-35.085,-23.767,-58.367,36.848,36.848,-3.4742,-6.1914,20.364,10.604,-4.0195,-0.50159,-0.50158,-3.5531,6.035,-20.672,9.6556,-4.2873,-0.13175,-0.13175,0.0,1,100,50
0.40341,33.815,-82.496,-174.25,22.782,-29.707,5.176,5.176,33.482,4.5769,-36.129,-23.283,-58.577,36.849,36.849,-3.554,-6.3562,20.569,10.614,-3.9678,-0.32457,-0.32456,-3.6278,6.2127,-20.879,9.6978,-4.1896,0.02534,0.02534,0.0,1,100,50
0.40341,33.634,-82.824,-173.21,23.312,-29.904,5.1684,5.1685,33.297,4.8974,-37.184,-22.796,-58.783,36.858,36.858,-3.6259,-6.5508,20.802,10.615,-3.928,-0.15147,-0.15147,-3.6928,6.4116,-21.113,9.7276,-4.1129,0.18196,0.18196,0.0,1,100,50
0.40341,33.448,-83.161,-172.16,23.843,-30.098,5.1681,5.1681,33.109,5.2257,-38.249,-22.308,-58.986,36.874,36.874,-3.7024,-6.7415,21.007,10.603,-3.896,-0.0063606,-0.0063606,-3.7636,6.5658,-21.299,9.7602,-4.0787,0.31234,0.31234,0.0,1,100,50
0.40341,33.256,-83.5,-171.11,24.371,-30.291,5.1676,5.1677,32.914,5.5452,-39.305,-21.815,-59.196,36.889,36.889,-3.8386,-6.7872,20.923,10.566,-3.8517,-0.0098099,-0.0098099,-3.9063,6.3893,-21.104,9.862,-4.1951,0.30176,0.30176,0.0,1,100,50
0.40341,33.059,-83.844,-170.06,24.901,-30.478,5.1777,5.1777,32.713,5.8706,-40.366,-21.318,-59.397,36.913,36.913,-3.9469,-6.8751,21.058,10.607,-3.7462,0.20134,0.20135,-4.0164,6.5086,-21.228,9.9418,-4.0085,0.48904,0.48904,0.0,1,100,50
0.40341,32.857,-84.195,-169.0,25.433,-30.661,5.1982,5.1982,32.507,6.2035,-41.435,-20.818,-59.589,36.947,36.947,-4.0435,-7.0172,21.229,10.631,-3.6456,0.40939,0.4094,-4.1077,6.6574,-21.384,10.001,-3.8509,0.67831,0.67831,0.0,1,100,50
0.40341,32.65,-84.554,-167.92,25.965,-30.838,5.229,5.229,32.298,6.5449,-42.514,-20.316,-59.775,36.991,36.991,-4.1308,-7.1941,21.429,10.643,-3.5553,0.61638,0.61638,-4.1852,6.8278,-21.568,10.042,-3.7137,0.86832,0.86839,0.0,1,100,50
0.40341,32.44,-84.924,-166.84,26.497,-31.012,5.2701,5.2701,32.086,6.8956,-43.602,-19.812,-59.954,37.044,37.044,-4.2102,-7.3959,21.654,10.644,-3.4728,0.82243,0.82244,-4.254,7.0145,-21.772,10.072,-3.5897,1.0598,1.0598,0.0,1,100,50
0.40341,32.221,-85.293,-165.77,27.027,-31.184,5.3068,5.3068,31.864,7.2293,-44.671,-19.302,-60.144,37.092,37.092,-4.3734,-7.3763,21.414,10.594,-3.4322,0.73323,0.73324,-4.4396,6.6736,-21.376,10.205,-3.8028,0.9746,0.97467,0.0,1,100,50
0.40341,31.996,-85.663,-164.7,27.559,-31.347,5.3553,5.3553,31.635,7.5655,-45.741,-18.786,-60.322,37.152,37.152,-4.5078,-7.4021,21.467,10.652,-3.2672,0.97036,0.97037,-4.5779,6.7237,-21.391,10.311,-3.545,1.1885,1.1885,0.0,1,100,50
0.40341,31.765,-86.038,-163.62,28.094,-31.502,5.4161,5.4162,31.4,7.9063,-46.813,-18.267,-60.487,37.223,37.223,-4.6271,-7.4967,21.563,10.69,-3.0959,1.217,1.217,-4.6891,6.8157,-21.449,10.387,-3.302,1.4156,1.4156,0.0,1,100,50
0.40341,31.528,-86.42,-162.54,28.629,-31.648,5.4893,5.4893,31.161,8.2527,-47.89,-17.745,-60.641,37.305,37.305,-4.7346,-7.6337,21.69,10.71,-2.9301,1.4627,1.4627,-4.7819,6.9289,-21.531,10.441,-3.0806,1.6462,1.6462,0.0,1,100,50
0.40341,31.286,-86.81,-161.44,29.165,-31.787,5.5747,5.5747,30.918,8.6057,-48.971,-17.221,-60.784,37.399,37.399,-4.8313,-7.799,21.839,10.716,-2.7709,1.7086,1.7086,-4.8632,7.0597,-21.631,10.476,-2.8713,1.8788,1.8788,0.0,1,100,50
0.40341,31.036,-87.196,-160.37,29.699,-31.923,5.6547,5.6547,30.664,8.9386,-50.028,-16.69,-60.939,37.488,37.488,-5.0041,-7.7333,21.51,10.667,-2.716,1.5995,1.5995,-5.0705,6.6584,-21.133,10.617,-3.0853,1.7827,1.7827,0.0,1,100,50
0.40341,30.778,-87.58,-159.3,30.234,-32.048,5.744,5.744,30.402,9.2658,-51.074,-16.153,-61.081,37.586,37.586,-5.1689,-7.6684,21.386,10.717,-2.5155,1.7866,1.7866,-5.25,6.5434,-20.921,10.749,-2.853,1.9556,1.9556,0.0,1,100,50
0.40341,30.512,-87.964,-158.23,30.773,-32.161,5.8475,5.8475,30.133,9.5934,-52.115,-15.611,-61.207,37.697,37.697,-5.3145,-7.6866,21.367,10.765,-2.2598,2.0693,2.0693,-5.3834,6.5516,-20.831,10.839,-2.5116,2.2206,2.2206,0.0,1,100,50
0.40341,30.24,-88.352,-157.16,31.312,-32.262,5.965,5.9651,29.858,9.9225,-53.154,-15.066,-61.317,37.821,37.821,-5.4436,-7.759,21.376,10.787,-2.003,2.3515,2.3515,-5.4917,6.5823,-20.763,10.898,-2.1933,2.4895,2.4895,0.0,1,100,50
0.40341,29.962,-88.745,-156.09,31.851,-32.349,6.0967,6.0967,29.579,10.254,-54.189,-14.52,-61.411,37.959,37.959,-5.5587,-7.8631,21.406,10.788,-1.7505,2.6335,2.6335,-5.5825,6.6286,-20.71,10.93,-1.8884,2.761,2.761,0.0,1,100,50
0.40341,29.675,-89.13,-155.05,32.388,-32.434,6.2191,6.2191,29.288,10.559,-55.19,-13.965,-61.519,38.089,38.09,-5.7438,-7.7061,20.898,10.733,-1.6998,2.4474,2.4474,-5.8234,6.0982,-20.011,11.082,-2.1593,2.6028,2.6028,0.0,1,100,50
0.40341,29.377,-89.504,-154.02,32.927,-32.51,6.3429,6.3429,28.984,10.844,-56.161,-13.402,-61.623,38.221,38.221,-5.9509,-7.4653,20.457,10.769,-1.5151,2.4756,2.4756,-6.0776,5.6986,-19.426,11.263,-2.0716,2.6359,2.6359,0.0,1,100,50
0.40341,29.07,-89.871,-153.01,33.469,-32.568,6.4821,6.4821,28.671,11.123,-57.117,-12.833,-61.703,38.368,38.368,-6.1356,-7.3408,20.249,10.84,-1.1619,2.7843,2.7843,-6.2505,5.5806,-19.122,11.379,-1.6134,2.9289,2.9289,0.0,1,100,50
0.40341,28.755,-90.236,-152.01,34.012,-32.608,6.6366,6.6367,28.352,11.397,-58.059,-12.261,-61.763,38.529,38.529,-6.2969,-7.2985,20.074,10.872,-0.79701,3.091,3.091,-6.3821,5.4902,-18.843,11.45,-1.1897,3.2261,3.2262,0.0,1,100,50
0.40341,28.434,-90.601,-151.01,34.556,-32.63,6.8064,6.8064,28.028,11.668,-58.988,-11.687,-61.802,38.705,38.705,-6.4372,-7.3008,19.923,10.874,-0.43624,3.3946,3.3946,-6.4888,5.4195,-18.584,11.484,-0.78943,3.5246,3.5246,0.0,1,100,50
0.40341,28.102,-90.954,-150.05,35.097,-32.648,6.9656,6.9656,27.691,11.91,-59.876,-11.106,-61.854,38.873,38.873,-6.621,-7.0675,19.279,10.824,-0.36487,3.1849,3.1849,-6.7341,4.8442,-17.762,11.62,-1.0352,3.3527,3.3528,0.0,1,100,50
0.40341,27.76,-91.285,-149.12,35.639,-32.664,7.111,7.1111,27.337,12.117,-60.715,-10.513,-61.918,39.029,39.029,-6.8537,-6.6273,18.451,10.844,-0.31986,2.9089,2.9089,-7.0749,4.1221,-16.763,11.853,-1.2874,3.1165,3.1165,0.0,1,100,50
0.40341,27.406,-91.603,-148.22,36.186,-32.659,7.2717,7.2717,26.973,12.311,-61.528,-9.9134,-61.956,39.199,39.199,-7.0733,-6.3444,18.051,10.944,0.098969,3.2126,3.2126,-7.2885,3.8873,-16.263,11.993,-0.75405,3.4101,3.4101,0.0,1,100,50
0.40341,27.043,-91.912,-147.34,36.736,-32.632,7.4473,7.4474,26.601,12.495,-62.318,-9.3096,-61.969,39.385,39.385,-7.2646,-6.1793,17.688,10.995,0.54122,3.5134,3.5134,-7.4442,3.6875,-15.797,12.075,-0.26938,3.7069,3.7069,0.0,1,100,50
0.40341,26.671,-92.215,-146.47,37.287,-32.583,7.6377,7.6378,26.223,12.671,-63.086,-8.7041,-61.96,39.585,39.585,-7.4282,-6.0749,17.36,11.009,0.97897,3.8076,3.8076,-7.5664,3.516,-15.364,12.112,0.18018,4.0038,4.0038,0.0,1,100,50
0.40341,26.291,-92.502,-145.64,37.835,-32.533,7.8116,7.8117,25.831,12.814,-63.805,-8.0919,-61.969,39.771,39.771,-7.6105,-5.7378,16.525,10.972,0.98928,3.4779,3.4779,-7.8245,2.8644,-14.391,12.244,-0.16119,3.7253,3.7253,0.0,1,100,50
0.40341,25.897,-92.748,-144.9,38.385,-32.51,7.9304,7.9304,25.413,12.892,-64.439,-7.4606,-62.038,39.908,39.908,-7.8728,-4.9089,14.965,11.002,0.46076,2.3749,2.3749,-8.3636,1.5497,-12.676,12.626,-1.3949,2.7312,2.7312,0.0,1,100,50
0.40341,25.489,-92.965,-144.18,38.946,-32.466,8.0622,8.0622,24.979,12.951,-65.038,-6.8174,-62.078,40.057,40.057,-8.163,-4.3474,14.326,11.222,0.8938,2.6361,2.6361,-8.6834,1.1792,-11.975,12.864,-0.79039,2.9883,2.9883,0.0,1,100,50
0.40341,25.068,-93.165,-143.49,39.515,-32.396,8.207,8.207,24.533,12.994,-65.604,-6.1659,-62.091,40.22,40.22,-8.4215,-3.9937,13.741,11.372,1.3882,2.8963,2.8963,-8.9119,0.85874,-11.326,13.028,-0.26214,3.2524,3.2524,0.0,1,100,50
0.40341,24.636,-93.352,-142.83,40.089,-32.302,8.3644,8.3644,24.079,13.023,-66.141,-5.5091,-62.08,40.395,40.395,-8.6421,-3.7412,13.212,11.478,1.8809,3.1479,3.1479,-9.0916,0.58171,-10.733,13.136,0.21529,3.515,3.515,0.0,1,100,50
0.40341,24.194,-93.52,-142.21,40.665,-32.205,8.5081,8.5081,23.612,13.024,-66.63,-4.8456,-62.079,40.56,40.56,-8.8435,-3.3576,12.331,11.531,1.9481,2.874,2.874,-9.3328,0.015812,-9.7916,13.269,0.027594,3.286,3.286,0.0,1,100,50
0.40341,23.739,-93.621,-141.73,41.244,-32.198,8.5211,8.5212,23.109,12.923,-66.985,-4.1569,-62.227,40.603,40.603,-9.0935,-2.0347,9.6702,11.573,0.14384,0.26127,0.26127,-10.063,-2.012,-7.0957,13.775,-2.9636,0.86006,0.86006,0.0,1,100,50
0.40341,23.266,-93.678,-141.29,41.844,-32.171,8.543,8.5431,22.582,12.798,-67.296,-3.45,-62.342,40.656,40.656,-9.4551,-1.13,8.8063,12.003,0.52879,0.43819,0.43819,-10.533,-2.5083,-6.2107,14.137,-2.2932,1.0595,1.0595,0.0,1,100,50
0.40341,22.777,-93.706,-140.89,42.461,-32.119,8.5744,8.5744,22.039,12.65,-67.564,-2.7286,-62.427,40.719,40.719,-9.7949,-0.55393,7.996,12.341,1.0461,0.62614,0.62616,-10.874,-2.9555,-5.3748,14.428,-1.7138,1.2681,1.2681,0.0,1,100,50
0.40341,22.272,-93.712,-140.53,43.093,-32.04,8.6147,8.6147,21.481,12.482,-67.794,-1.9953,-62.487,40.793,40.793,-10.095,-0.12663,7.249,12.63,1.5791,0.80617,0.80617,-11.155,-3.3578,-4.5911,14.666,-1.1883,1.4749,1.4749,0.0,1,100,50
0.40341,21.754,-93.7,-140.2,43.737,-31.938,8.66,8.6601,20.911,12.294,-67.984,-1.252,-62.526,40.873,40.873,-10.358,0.2407,6.513,12.881,2.0312,0.90768,0.90768,-11.405,-3.7576,-3.8088,14.866,-0.77973,1.608,1.608,0.0,1,100,50
0.40341,21.225,-93.6,-140.08,44.374,-32.016,8.486,8.486,20.313,11.98,-67.982,-0.49982,-62.806,40.741,40.741,-10.58,2.0071,2.4968,12.744,-1.5501,-3.4817,-3.4817,-11.95,-6.2726,0.04385,15.044,-5.6088,-2.6454,-2.6454,0.0,1,100,50
0.40341,20.679,-93.437,-140.01,45.041,-32.073,8.3166,8.3166,19.689,11.632,-67.918,0.26802,-63.045,40.618,40.618,-10.912,3.2467,1.3442,13.334,-1.1391,-3.3881,-3.3881,-12.48,-6.9642,1.2834,15.357,-4.7742,-2.4656,-2.4656,0.0,1,100,50
0.40341,20.116,-93.233,-140.0,45.732,-32.098,8.1534,8.1534,19.045,11.249,-67.79,1.0509,-63.244,40.504,40.504,-11.26,4.0865,0.18223,13.832,-0.50735,-3.264,-3.264,-12.879,-7.6623,2.5556,15.657,-3.9909,-2.2815,-2.2815,0.0,1,100,50
0.40341,19.537,-92.994,-140.05,46.447,-32.088,7.9966,7.9967,18.384,10.83,-67.597,1.8484,-63.405,40.398,40.399,-11.586,4.7698,-0.96961,14.289,0.19493,-3.1347,-3.1347,-13.227,-8.3737,3.8658,15.951,-3.2113,-2.1024,-2.1024,0.0,1,100,50
0.40341,18.943,-92.725,-140.16,47.183,-32.043,7.8464,7.8464,17.706,10.375,-67.336,2.6607,-63.525,40.302,40.302,-11.886,5.3877,-2.1149,14.727,0.91955,-3.005,-3.005,-13.551,-9.1093,5.2274,16.246,-2.4081,-1.9326,-1.9326,0.0,1,100,50
0.40341,18.333,-92.379,-140.45,47.907,-32.114,7.5434,7.5435,17.033,9.8194,-66.887,3.4501,-63.78,40.05,40.05,-12.19,6.9097,-5.81,14.479,-1.4205,-6.0588,-6.0588,-13.466,-11.11,8.981,15.788,-5.1024,-5.0426,-5.0426,0.0,1,100,50
0.40341,17.715,-91.967,-140.84,48.653,-32.162,7.2257,7.2257,16.347,9.1985,-66.318,4.2381,-63.995,39.788,39.788,-12.361,8.2517,-7.7861,14.909,-0.96155,-6.3555,-6.3555,-13.728,-12.418,11.366,15.759,-4.2989,-5.2297,-5.2297,0.0,1,100,50
0.40341,17.088,-91.499,-141.32,49.424,-32.156,6.9154,6.9155,15.646,8.5116,-65.632,5.0331,-64.14,39.538,39.538,-12.548,9.3676,-9.6202,15.427,0.10532,-6.2047,-6.2047,-14.013,-13.739,13.737,15.899,-2.8859,-4.9968,-4.9968,0.0,1,100,50
0.40341,16.45,-90.977,-141.9,50.222,-32.09,6.6147,6.6147,14.931,7.751,-64.813,5.8399,-64.205,39.3,39.3,-12.751,10.423,-11.587,15.957,1.3223,-6.0155,-6.0155,-14.293,-15.213,16.364,16.137,-1.3108,-4.7724,-4.7724,0.0,1,100,50
0.40341,15.802,-90.403,-142.58,51.048,-31.957,6.3254,6.3254,14.202,6.9082,-63.849,6.6632,-64.182,39.072,39.072,-12.957,11.495,-13.701,16.516,2.6656,-5.786,-5.786,-14.583,-16.854,19.278,16.466,0.47224,-4.5506,-4.5507,0.0,1,100,50
0.40341,15.143,-89.774,-143.39,51.897,-31.755,6.0318,6.0318,13.47,5.9572,-62.701,7.4952,-64.08,38.843,38.843,-13.186,12.579,-16.161,16.984,4.0435,-5.871,-5.871,-14.64,-19.021,22.975,16.639,2.0242,-4.5906,-4.5907,0.0,1,100,50
0.40341,14.476,-89.086,-144.33,52.78,-31.471,5.7477,5.7478,12.731,4.8907,-61.352,8.3404,-63.865,38.622,38.622,-13.338,13.745,-18.741,17.656,5.6781,-5.6813,-5.6813,-14.784,-21.33,26.964,16.905,4.3107,-4.4081,-4.4081,0.0,1,100,50
0.40341,13.803,-88.336,-145.4,53.705,-31.095,5.4836,5.4836,11.979,3.7012,-59.791,9.209,-63.506,38.417,38.417,-13.465,15.003,-21.471,18.504,7.5202,-5.2831,-5.2832,-15.034,-23.79,31.238,17.372,7.1843,-4.1021,-4.1021,0.0,1,100,50
0.40341,13.123,-87.519,-146.62,54.679,-30.618,5.2441,5.2442,11.213,2.378,-57.997,10.111,-62.983,38.228,38.228,-13.602,16.34,-24.404,19.477,9.5316,-4.7889,-4.7889,-15.326,-26.463,35.862,18.031,10.456,-3.7825,-3.7826,0.0,1,100,50
